; generated by Slic3r 1.3.0 on 2025-05-11 at 16:25:29

; external perimeters extrusion width = 0.55mm (7.28mm^3/s)
; perimeters extrusion width = 0.70mm (11.44mm^3/s)
; infill extrusion width = 0.63mm (13.45mm^3/s)
; solid infill extrusion width = 0.70mm (3.81mm^3/s)
; top infill extrusion width = 0.70mm (2.86mm^3/s)

M107
M190 S50 ; set bed temperature and wait for it to be reached
M104 S200 ; set temperature
G28 ; home all axes
G1 Z5 F5000 ; lift nozzle

; Filament gcode

M109 S200 ; set temperature and wait for it to be reached
G21 ; set units to millimeters
G90 ; use absolute coordinates
M82 ; use absolute distances for extrusion
G92 E0
G1 Z0.350 F7800.000
G1 E-2.00000 F2400.00000
G92 E0
G1 X54.827 Y90.739 F7800.000
G1 E2.00000 F2400.00000
G1 F1800
G1 X58.087 Y89.865 E2.27544
G1 X119.585 Y89.859 E7.29574
G1 X123.306 Y89.865 E7.59949
G1 X124.310 Y89.944 E7.68168
G1 X125.291 Y90.109 E7.76285
G1 X126.475 Y90.349 E7.86149
G1 X127.438 Y90.591 E7.94255
G1 X128.073 Y90.782 E7.99665
G1 X129.111 Y91.206 E8.08819
G1 X129.505 Y91.407 E8.12436
G1 X130.803 Y92.281 E8.25206
G1 X132.558 Y94.591 E8.48892
G1 X132.592 Y94.666 E8.49558
G1 X133.179 Y97.379 E8.72221
G1 X133.179 Y102.621 E9.15013
G1 X132.592 Y105.334 E9.37675
G1 X132.558 Y105.409 E9.38342
G1 X130.803 Y107.719 E9.62027
G1 X130.734 Y107.777 E9.62764
G1 X129.505 Y108.593 E9.74801
G1 X129.111 Y108.794 E9.78418
G1 X128.073 Y109.218 E9.87573
G1 X127.438 Y109.409 E9.92983
G1 X126.475 Y109.651 E10.01088
G1 X125.291 Y109.891 E10.10953
G1 X124.310 Y110.056 E10.19070
G1 X123.306 Y110.135 E10.27289
G1 X119.585 Y110.141 E10.57664
G1 X58.087 Y110.135 E15.59694
G1 X55.840 Y109.734 E15.78324
G1 X53.866 Y108.587 E15.96955
G1 X52.405 Y106.834 E16.15586
G1 X51.537 Y103.574 E16.43130
G1 X51.537 Y96.426 E17.01474
G1 X51.934 Y94.179 E17.20104
G1 X53.077 Y92.203 E17.38735
G1 X54.770 Y90.787 E17.56754
G1 E15.56754 F2400.00000
G92 E0
G1 X125.264 Y101.788 F7800.000
G1 E2.00000 F2400.00000
G1 F1800
G1 X124.845 Y101.906 E2.03555
G1 X123.851 Y102.108 E2.11837
G1 X123.183 Y102.220 E2.17366
G1 X64.964 Y102.220 E6.92617
G1 X65.198 Y101.793 E6.96588
G1 X65.362 Y101.388 E7.00152
G1 X65.486 Y100.955 E7.03834
G1 X65.563 Y100.497 E7.07620
G1 X65.589 Y100.060 E7.11195
G1 X65.568 Y99.611 E7.14865
G1 X65.498 Y99.166 E7.18547
G1 X65.380 Y98.729 E7.22242
G1 X65.209 Y98.297 E7.26026
G1 X64.919 Y97.780 E7.30868
G1 X123.183 Y97.780 E12.06492
G1 X123.851 Y97.892 E12.12021
G1 X124.856 Y98.097 E12.20395
G1 X125.264 Y98.204 E12.23840
G1 X125.264 Y101.713 E12.52489
G1 X125.825 Y102.214 F7800.000
G1 F1800
G1 X124.977 Y102.451 E12.59681
G1 X123.953 Y102.660 E12.68210
G1 X123.229 Y102.781 E12.74201
G1 X63.746 Y102.781 E17.59772
G1 X64.031 Y102.514 E17.62952
G1 X64.285 Y102.219 E17.66135
G1 X64.505 Y101.897 E17.69318
G1 X64.689 Y101.554 E17.72494
G1 X64.831 Y101.205 E17.75569
G1 X64.938 Y100.830 E17.78752
G1 X65.005 Y100.434 E17.82035
G1 X65.028 Y100.057 E17.85117
G1 X65.009 Y99.668 E17.88293
G1 X64.949 Y99.283 E17.91476
G1 X64.846 Y98.906 E17.94667
G1 X64.699 Y98.532 E17.97950
G1 X64.523 Y98.198 E18.01030
G1 X64.306 Y97.874 E18.04208
G1 X64.055 Y97.576 E18.07391
G1 X63.659 Y97.219 E18.11744
G1 X123.229 Y97.219 E22.98032
G1 X123.953 Y97.340 E23.04022
G1 X124.983 Y97.550 E23.12605
G1 X125.825 Y97.785 E23.19741
G1 X125.825 Y102.139 E23.55281
G1 E21.55281 F2400.00000
G92 E0
G1 X59.222 Y97.219 F7800.000
G1 E2.00000 F2400.00000
G1 F1800
G1 X58.891 Y97.515 E2.03618
G1 X58.891 Y97.219 E2.06027
G1 X59.147 Y97.219 E2.08114
G1 E0.08114 F2400.00000
G92 E0
G1 X58.891 Y102.554 F7800.000
G1 E2.00000 F2400.00000
G1 F1800
G1 X59.135 Y102.781 E2.02718
G1 X58.891 Y102.781 E2.04705
G1 X58.891 Y102.629 E2.05946
G1 X58.373 Y103.299 F7800.000
G1 F1800
G1 X58.373 Y100.076 E2.28215
G1 X58.391 Y100.381 E2.30323
G1 X58.447 Y100.709 E2.32627
G1 X58.538 Y101.030 E2.34933
G1 X58.664 Y101.339 E2.37237
G1 X58.816 Y101.622 E2.39458
G1 X59.011 Y101.907 E2.41843
G1 X59.229 Y102.160 E2.44151
G1 X59.473 Y102.388 E2.46456
G1 X59.740 Y102.587 E2.48761
G1 X60.027 Y102.757 E2.51066
G1 X60.331 Y102.894 E2.53371
G1 X60.648 Y102.997 E2.55675
G1 X60.986 Y103.068 E2.58063
G1 X61.895 Y103.068 E2.64343
G1 X62.239 Y102.996 E2.66768
G1 X62.555 Y102.892 E2.69072
G1 X62.859 Y102.754 E2.71375
G1 X63.136 Y102.590 E2.73598
G1 X63.413 Y102.384 E2.75984
G1 X63.656 Y102.156 E2.78291
G1 X63.874 Y101.903 E2.80596
G1 X64.062 Y101.627 E2.82901
G1 X64.220 Y101.334 E2.85204
G1 X64.340 Y101.036 E2.87425
G1 X64.432 Y100.715 E2.89729
G1 X64.490 Y100.375 E2.92116
G1 X64.509 Y100.054 E2.94339
G1 X64.493 Y99.721 E2.96641
G1 X64.441 Y99.391 E2.98946
G1 X64.354 Y99.069 E3.01253
G1 X64.227 Y98.748 E3.03639
G1 X64.078 Y98.463 E3.05862
G1 X63.892 Y98.186 E3.08165
G1 X63.677 Y97.931 E3.10470
G1 X63.436 Y97.701 E3.12775
G1 X63.171 Y97.498 E3.15080
G1 X62.885 Y97.325 E3.17387
G1 X62.572 Y97.180 E3.19773
G1 X62.267 Y97.077 E3.21995
G1 X61.942 Y97.005 E3.24299
G1 X61.610 Y96.968 E3.26604
G1 X61.277 Y96.968 E3.28908
G1 X60.945 Y97.004 E3.31213
G1 X60.619 Y97.076 E3.33518
G1 X60.303 Y97.182 E3.35823
G1 X60.001 Y97.322 E3.38128
G1 X59.715 Y97.495 E3.40433
G1 X59.449 Y97.697 E3.42741
G1 X59.200 Y97.936 E3.45126
G1 X58.993 Y98.181 E3.47347
G1 X58.806 Y98.458 E3.49652
G1 X58.651 Y98.753 E3.51956
G1 X58.529 Y99.063 E3.54261
G1 X58.441 Y99.385 E3.56566
G1 X58.388 Y99.714 E3.58871
G1 X58.373 Y100.013 E3.60940
G1 X58.373 Y96.701 E3.83827
G1 X123.272 Y96.701 E8.32293
G1 X124.047 Y96.831 E8.37725
G1 X125.101 Y97.046 E8.45154
G1 X126.017 Y97.301 E8.51727
G1 X126.343 Y97.468 E8.54260
G1 X126.343 Y102.532 E8.89249
G1 X126.020 Y102.697 E8.91753
G1 X125.098 Y102.955 E8.98370
G1 X124.047 Y103.169 E9.05783
G1 X123.272 Y103.299 E9.11215
G1 X58.448 Y103.299 E13.59163
G1 X58.623 Y102.865 F7800.000
G1 E11.59163 F2400.00000
G92 E0
G1 X66.048 Y98.123 F7800.000
G1 E2.00000 F2400.00000
G1 F1800
G1 X65.612 Y98.560 E2.05040
G1 X65.695 Y98.770 E2.06885
G1 X65.801 Y99.163 E2.10214
G1 X66.842 Y98.123 E2.22226
G1 X67.635 Y98.123 E2.28704
G1 X65.912 Y99.846 E2.48596
G1 X65.933 Y100.282 E2.52158
G1 X65.912 Y100.640 E2.55089
G1 X68.429 Y98.123 E2.84151
G1 X69.222 Y98.123 E2.90629
G1 X65.722 Y101.623 E3.31039
G1 X65.639 Y101.877 E3.33220
G1 X66.262 Y101.877 E3.38304
G1 X70.016 Y98.123 E3.81645
G1 X70.809 Y98.123 E3.88124
G1 X67.056 Y101.877 E4.31465
G1 X67.849 Y101.877 E4.37944
G1 X71.603 Y98.123 E4.81285
G1 X72.396 Y98.123 E4.87764
G1 X68.643 Y101.877 E5.31105
G1 X69.436 Y101.877 E5.37583
G1 X73.190 Y98.123 E5.80925
G1 X73.983 Y98.123 E5.87403
G1 X70.230 Y101.877 E6.30744
G1 X71.023 Y101.877 E6.37223
G1 X74.777 Y98.123 E6.80564
G1 X75.570 Y98.123 E6.87043
G1 X71.817 Y101.877 E7.30384
G1 X72.610 Y101.877 E7.36863
G1 X76.364 Y98.123 E7.80204
G1 X77.157 Y98.123 E7.86683
G1 X73.404 Y101.877 E8.30024
G1 X74.197 Y101.877 E8.36503
G1 X77.951 Y98.123 E8.79844
G1 X78.744 Y98.123 E8.86323
G1 X74.991 Y101.877 E9.29664
G1 X75.784 Y101.877 E9.36143
G1 X79.538 Y98.123 E9.79484
G1 X80.331 Y98.123 E9.85963
G1 X76.578 Y101.877 E10.29304
G1 X77.371 Y101.877 E10.35783
G1 X81.125 Y98.123 E10.79124
G1 X81.918 Y98.123 E10.85603
G1 X78.165 Y101.877 E11.28944
G1 X78.958 Y101.877 E11.35423
G1 X82.712 Y98.123 E11.78764
G1 X83.505 Y98.123 E11.85243
G1 X79.752 Y101.877 E12.28585
G1 X80.545 Y101.877 E12.35063
G1 X84.299 Y98.123 E12.78405
G1 X85.092 Y98.123 E12.84883
G1 X81.339 Y101.877 E13.28225
G1 X82.132 Y101.877 E13.34704
G1 X85.886 Y98.123 E13.78045
G1 X86.679 Y98.123 E13.84524
G1 X82.926 Y101.877 E14.27865
G1 X83.719 Y101.877 E14.34344
G1 X87.473 Y98.123 E14.77686
G1 X88.266 Y98.123 E14.84164
G1 X84.513 Y101.877 E15.27506
G1 X85.306 Y101.877 E15.33985
G1 X89.060 Y98.123 E15.77326
G1 X89.853 Y98.123 E15.83805
G1 X86.100 Y101.877 E16.27147
G1 X86.893 Y101.877 E16.33625
G1 X90.647 Y98.123 E16.76967
G1 X91.440 Y98.123 E16.83446
G1 X87.687 Y101.877 E17.26787
G1 X88.480 Y101.877 E17.33266
G1 X92.234 Y98.123 E17.76608
G1 X93.027 Y98.123 E17.83087
G1 X89.274 Y101.877 E18.26428
G1 X90.067 Y101.877 E18.32907
G1 X93.821 Y98.123 E18.76249
G1 X94.614 Y98.123 E18.82727
G1 X90.861 Y101.877 E19.26069
G1 X91.654 Y101.877 E19.32548
G1 X95.408 Y98.123 E19.75890
G1 X96.201 Y98.123 E19.82368
G1 X92.448 Y101.877 E20.25710
G1 X93.241 Y101.877 E20.32189
G1 X96.995 Y98.123 E20.75531
G1 X97.788 Y98.123 E20.82010
G1 X94.035 Y101.877 E21.25351
G1 X94.828 Y101.877 E21.31830
G1 X98.582 Y98.123 E21.75172
G1 X99.375 Y98.123 E21.81651
G1 X95.622 Y101.877 E22.24993
G1 X96.415 Y101.877 E22.31471
G1 X100.169 Y98.123 E22.74813
G1 X100.962 Y98.123 E22.81292
G1 X97.209 Y101.877 E23.24634
G1 X98.002 Y101.877 E23.31113
G1 X101.756 Y98.123 E23.74455
G1 X102.549 Y98.123 E23.80934
G1 X98.796 Y101.877 E24.24276
G1 X99.589 Y101.877 E24.30754
G1 X103.343 Y98.123 E24.74096
G1 X104.136 Y98.123 E24.80575
G1 X100.383 Y101.877 E25.23917
G1 X101.176 Y101.877 E25.30396
G1 X104.930 Y98.123 E25.73738
G1 X105.723 Y98.123 E25.80217
G1 X101.970 Y101.877 E26.23559
G1 X102.763 Y101.877 E26.30037
G1 X106.517 Y98.123 E26.73380
G1 X107.310 Y98.123 E26.79858
G1 X103.557 Y101.877 E27.23201
G1 X104.350 Y101.877 E27.29679
G1 X108.104 Y98.123 E27.73021
G1 X108.897 Y98.123 E27.79500
G1 X105.144 Y101.877 E28.22842
G1 X105.937 Y101.877 E28.29321
G1 X109.691 Y98.123 E28.72663
G1 X110.485 Y98.123 E28.79142
G1 X106.731 Y101.877 E29.22484
G1 X107.524 Y101.877 E29.28963
G1 X111.278 Y98.123 E29.72305
G1 X112.072 Y98.123 E29.78784
G1 X108.318 Y101.877 E30.22127
G1 X109.111 Y101.877 E30.28605
G1 X112.865 Y98.123 E30.71948
G1 X113.659 Y98.123 E30.78426
G1 X109.905 Y101.877 E31.21769
G1 X110.698 Y101.877 E31.28247
G1 X114.452 Y98.123 E31.71590
G1 X115.246 Y98.123 E31.78069
G1 X111.492 Y101.877 E32.21411
G1 X112.285 Y101.877 E32.27890
G1 X116.039 Y98.123 E32.71232
G1 X116.833 Y98.123 E32.77711
G1 X113.079 Y101.877 E33.21053
G1 X113.872 Y101.877 E33.27532
G1 X117.626 Y98.123 E33.70875
G1 X118.420 Y98.123 E33.77353
G1 X114.666 Y101.877 E34.20696
G1 X115.459 Y101.877 E34.27175
G1 X119.213 Y98.123 E34.70517
G1 X120.007 Y98.123 E34.76996
G1 X116.253 Y101.877 E35.20339
G1 X117.046 Y101.877 E35.26817
G1 X120.800 Y98.123 E35.70160
G1 X121.594 Y98.123 E35.76639
G1 X117.840 Y101.877 E36.19981
G1 X118.633 Y101.877 E36.26460
G1 X122.387 Y98.123 E36.69803
G1 X123.181 Y98.123 E36.76281
G1 X119.427 Y101.877 E37.19624
G1 X120.220 Y101.877 E37.26103
G1 X123.886 Y98.212 E37.68423
G1 X124.547 Y98.344 E37.73931
G1 X121.014 Y101.877 E38.14728
G1 X121.807 Y101.877 E38.21207
G1 X124.921 Y98.763 E38.57161
G1 X124.921 Y99.557 E38.63639
G1 X122.601 Y101.877 E38.90431
G1 X122.918 Y101.877 E38.93020
G1 X123.490 Y101.782 E38.97752
G1 X124.921 Y100.350 E39.14282
G1 X124.921 Y101.144 E39.20760
G1 X124.485 Y101.580 E39.25801
G1 Z0.650 F7800.000
G1 E37.25801 F2400.00000
G92 E0
G1 X64.855 Y102.587 F7800.000
G1 E2.00000 F2400.00000
G1 F3600
G1 X65.094 Y102.236 E2.03363
G1 X65.309 Y101.830 E2.07008
G1 X65.468 Y101.439 E2.10356
G1 X65.598 Y100.993 E2.14037
G1 X65.681 Y100.499 E2.18011
G1 X65.706 Y100.073 E2.21392
G1 X65.686 Y99.614 E2.25040
G1 X65.616 Y99.155 E2.28720
G1 X65.494 Y98.701 E2.32440
G1 X65.310 Y98.236 E2.36409
G1 X65.112 Y97.859 E2.39787
G1 X64.803 Y97.413 E2.44086
G1 X123.213 Y97.413 E7.07146
G1 X126.868 Y97.851 E7.36328

G1 F3600
G1 X129.044 Y98.161 E7.54271
G1 X130.740 Y98.470 E7.68342
G1 X131.348 Y98.627 E7.73471
G1 X131.348 Y101.373 E7.95889
G1 X130.740 Y101.530 E8.01017
G1 X129.044 Y101.839 E8.15089
G1 X126.868 Y102.149 E8.33031

G1 F3600
G1 X123.213 Y102.587 E8.62214
G1 X64.930 Y102.587 E13.24270
G1 X63.168 Y103.223 F7800.000
G1 F3600
G1 X63.436 Y103.064 E13.26740
G1 X63.781 Y102.808 E13.30149
G1 X64.070 Y102.535 E13.33302
G1 X64.326 Y102.234 E13.36433
G1 X64.549 Y101.908 E13.39563
G1 X64.733 Y101.561 E13.42674
G1 X64.867 Y101.230 E13.45504
G1 X64.977 Y100.851 E13.48635
G1 X65.049 Y100.427 E13.52046
G1 X65.070 Y100.068 E13.54894
G1 X65.053 Y99.676 E13.58007
G1 X64.993 Y99.286 E13.61138
G1 X64.890 Y98.901 E13.64292
G1 X64.731 Y98.502 E13.67699
G1 X64.564 Y98.184 E13.70546
G1 X64.346 Y97.857 E13.73661
G1 X64.093 Y97.554 E13.76792
G1 X63.808 Y97.281 E13.79923
G1 X63.495 Y97.040 E13.83054
G1 X63.034 Y96.777 E13.87259
G1 X123.250 Y96.777 E18.64639
G1 X126.812 Y97.201 E18.93073

G1 F3600
G1 X129.146 Y97.533 E19.12320
G1 X130.876 Y97.849 E19.26680
G1 X131.984 Y98.147 E19.36042
G1 X131.984 Y101.853 E19.66295
G1 X130.876 Y102.151 E19.75657
G1 X129.146 Y102.467 E19.90017
G1 X126.812 Y102.799 E20.09264

G1 F3600
G1 X123.250 Y103.223 E20.37698
G1 X63.243 Y103.223 E25.13424
G1 E23.13424 F2400.00000
G92 E0
G1 X58.934 Y97.416 F7800.000
G1 E2.00000 F2400.00000
G1 F900
G1 X58.934 Y96.777 E2.05065
G1 X59.844 Y96.777 E2.12278
G1 X59.404 Y97.028 E2.16294
G1 X58.988 Y97.364 E2.20533
G1 E0.20533 F2400.00000
G92 E0
G1 X59.114 Y102.820 F7800.000
G1 E2.00000 F2400.00000
G1 F900
G1 X59.431 Y103.056 E2.03131
G1 X59.714 Y103.223 E2.05739
G1 X58.934 Y103.223 E2.11926
G1 X58.934 Y102.652 E2.16454
G1 X59.059 Y102.769 E2.17813
G1 X58.373 Y103.783 F7800.000
G1 F3000
G1 X58.373 Y100.075 E2.40274
G1 X58.391 Y100.380 E2.42122
G1 X58.447 Y100.709 E2.44145
G1 X58.538 Y101.030 E2.46168
G1 X58.664 Y101.339 E2.48189
G1 X58.806 Y101.603 E2.50002
G1 X59.011 Y101.907 E2.52224
G1 X59.230 Y102.161 E2.54255
G1 X59.474 Y102.389 E2.56277
G1 X59.742 Y102.588 E2.58299
G1 X60.029 Y102.758 E2.60322
G1 X60.334 Y102.895 E2.62344
G1 X60.651 Y102.998 E2.64365
G1 X60.987 Y103.068 E2.66441
G1 X61.895 Y103.068 E2.71942
G1 X62.247 Y102.993 E2.74123
G1 X62.564 Y102.888 E2.76147
G1 X62.867 Y102.749 E2.78165
G1 X63.125 Y102.597 E2.79981
G1 X63.420 Y102.377 E2.82207
G1 X63.663 Y102.148 E2.84235
G1 X63.880 Y101.894 E2.86257
G1 X64.068 Y101.618 E2.88279
G1 X64.224 Y101.324 E2.90296
G1 X64.336 Y101.046 E2.92108
G1 X64.430 Y100.726 E2.94130
G1 X64.491 Y100.363 E2.96356
G1 X64.509 Y100.064 E2.98173
G1 X64.494 Y99.731 E3.00191
G1 X64.443 Y99.401 E3.02213
G1 X64.357 Y99.078 E3.04240
G1 X64.221 Y98.736 E3.06466
G1 X64.082 Y98.471 E3.08282
G1 X63.897 Y98.194 E3.10301
G1 X63.683 Y97.938 E3.12323
G1 X63.442 Y97.706 E3.14345
G1 X63.177 Y97.503 E3.16367
G1 X62.891 Y97.328 E3.18396
G1 X62.557 Y97.175 E3.20620
G1 X62.273 Y97.079 E3.22436
G1 X61.948 Y97.006 E3.24455
G1 X61.616 Y96.969 E3.26477
G1 X61.283 Y96.968 E3.28499
G1 X60.951 Y97.003 E3.30521
G1 X60.624 Y97.074 E3.32544
G1 X60.308 Y97.180 E3.34566
G1 X60.005 Y97.320 E3.36588
G1 X59.719 Y97.492 E3.38610
G1 X59.452 Y97.695 E3.40640
G1 X59.188 Y97.950 E3.42863
G1 X58.995 Y98.179 E3.44677
G1 X58.808 Y98.456 E3.46698
G1 X58.652 Y98.751 E3.48721
G1 X58.529 Y99.061 E3.50743
G1 X58.441 Y99.383 E3.52765
G1 X58.388 Y99.713 E3.54787
G1 X58.373 Y100.013 E3.56604
G1 X58.373 Y96.217 E3.79597
G1 X123.283 Y96.217 E7.72748
G1 X124.175 Y96.321 E7.78187

G1 F3600
G1 X126.593 Y96.603 E7.98064
G1 X129.236 Y96.980 E8.19853
G1 X130.997 Y97.301 E8.34467
G1 X132.131 Y97.594 E8.44032
G1 X132.544 Y97.802 E8.47806
G1 X132.544 Y102.198 E8.83698
G1 X132.131 Y102.406 E8.87472
G1 X130.997 Y102.699 E8.97037
G1 X129.236 Y103.020 E9.11652
G1 X126.593 Y103.397 E9.33441
G1 X124.175 Y103.679 E9.53317

G1 F3000
G1 X123.283 Y103.783 E9.58757
G1 X58.448 Y103.783 E13.51453
G1 X58.623 Y103.350 F7800.000
G1 E11.51453 F2400.00000
G92 E0
G1 X65.699 Y101.704 F7800.000
G1 E2.00000 F2400.00000
G1 F1200
G1 X66.193 Y102.199 E2.05555
G1 X67.094 Y102.199 E2.12709
G1 X65.929 Y101.033 E2.25800
G1 X65.971 Y100.888 E2.27002
G1 X66.069 Y100.274 E2.31946
G1 X67.995 Y102.199 E2.53573
G1 X68.895 Y102.199 E2.60727
G1 X66.076 Y99.379 E2.92398
G1 X65.991 Y98.777 E2.97233
G1 X65.852 Y98.254 E3.01526
G1 X69.796 Y102.199 E3.45834
G1 X70.697 Y102.199 E3.52987
G1 X66.299 Y97.801 E4.02387
G1 X67.200 Y97.801 E4.09540
G1 X71.597 Y102.199 E4.58940
G1 X72.498 Y102.199 E4.66093
G1 X68.100 Y97.801 E5.15493
G1 X69.001 Y97.801 E5.22646
G1 X73.398 Y102.199 E5.72045
G1 X74.299 Y102.199 E5.79199
G1 X69.901 Y97.801 E6.28598
G1 X70.802 Y97.801 E6.35752
G1 X75.200 Y102.199 E6.85151
G1 X76.100 Y102.199 E6.92305
G1 X71.703 Y97.801 E7.41704
G1 X72.603 Y97.801 E7.48858
G1 X77.001 Y102.199 E7.98257
G1 X77.902 Y102.199 E8.05411
G1 X73.504 Y97.801 E8.54810
G1 X74.405 Y97.801 E8.61964
G1 X78.802 Y102.199 E9.11363
G1 X79.703 Y102.199 E9.18517
