; generated by Slic3r 1.3.0 on 2025-05-14 at 14:45:22

; external perimeters extrusion width = 0.55mm (7.28mm^3/s)
; perimeters extrusion width = 0.70mm (11.44mm^3/s)
; infill extrusion width = 0.63mm (13.45mm^3/s)
; solid infill extrusion width = 0.70mm (3.81mm^3/s)
; top infill extrusion width = 0.70mm (2.86mm^3/s)

M107
M190 S50 ; set bed temperature and wait for it to be reached
M104 S200 ; set temperature
G28 ; home all axes
G1 Z5 F5000 ; lift nozzle

; Filament gcode

M109 S200 ; set temperature and wait for it to be reached
G21 ; set units to millimeters
G90 ; use absolute coordinates
M82 ; use absolute distances for extrusion
G92 E0
G1 Z0.350 F7800.000
G1 E-2.00000 F2400.00000
G92 E0
G1 X22.082 Y28.606 F7800.000
G1 E2.00000 F2400.00000
G1 F1800
G1 X24.126 Y27.593 E2.18631
G1 X25.974 Y27.327 E2.33864
G1 X150.748 Y27.327 E12.52428
G1 X152.995 Y27.724 E12.71059
G1 X154.640 Y28.606 E12.86293
G1 X172.332 Y41.642 E14.65688
G1 X173.905 Y43.295 E14.84319
G1 X174.751 Y45.131 E15.00821
G1 X198.030 Y127.073 E21.96198
G1 X198.279 Y128.866 E22.10976
G1 X198.279 Y153.076 E24.08608
G1 X197.882 Y155.323 E24.27238
G1 X196.739 Y157.299 E24.45869
G1 X194.989 Y158.763 E24.64500
G1 X193.708 Y159.328 E24.75932
G1 X152.737 Y172.364 E28.26907
G1 X150.748 Y172.673 E28.43341
G1 X25.974 Y172.673 E38.61905
G1 X23.726 Y172.276 E38.80536
G1 X22.082 Y171.394 E38.95770
G1 X4.390 Y158.358 E40.75165
G1 X2.816 Y156.705 E40.93796
G1 X1.903 Y154.613 E41.12427
G1 X1.721 Y153.076 E41.25064
G1 X1.721 Y46.924 E49.91604
G1 X2.118 Y44.677 E50.10235
G1 X3.261 Y42.701 E50.28865
G1 X4.390 Y41.642 E50.41503
G1 X22.021 Y28.651 E52.20286
G1 E50.20286 F2400.00000
G92 E0
G1 X140.289 Y156.432 F7800.000
G1 E2.00000 F2400.00000
G1 F1800
G1 X140.762 Y155.927 E2.05651
G1 X141.300 Y155.490 E2.11305
G1 X141.891 Y155.130 E2.16951
G1 X142.526 Y154.853 E2.22608
G1 X143.195 Y154.665 E2.28286
G1 X143.884 Y154.571 E2.33962
G1 X144.575 Y154.571 E2.39600
G1 X145.264 Y154.665 E2.45276
G1 X145.933 Y154.853 E2.50954
G1 X146.569 Y155.130 E2.56612
G1 X147.159 Y155.490 E2.62256
G1 X147.697 Y155.927 E2.67911
G1 X148.170 Y156.432 E2.73562
G1 X148.572 Y157.001 E2.79248
G1 X148.890 Y157.618 E2.84911
G1 X149.123 Y158.270 E2.90566
G1 X149.263 Y158.949 E2.96229
G1 X149.311 Y159.642 E3.01899
G1 X149.263 Y160.333 E3.07553
G1 X149.123 Y161.012 E3.13214
G1 X148.890 Y161.665 E3.18869
G1 X148.572 Y162.281 E3.24533
G1 X148.170 Y162.850 E3.30218
G1 X147.698 Y163.354 E3.35853
G1 X147.159 Y163.794 E3.41535
G1 X146.567 Y164.153 E3.47188
G1 X145.933 Y164.429 E3.52828
G1 X145.264 Y164.617 E3.58506
G1 X144.575 Y164.711 E3.64182
G1 X143.884 Y164.711 E3.69819
G1 X143.195 Y164.617 E3.75496
G1 X142.526 Y164.429 E3.81174
G1 X141.892 Y164.153 E3.86814
G1 X141.300 Y163.794 E3.92467
G1 X140.761 Y163.354 E3.98148
G1 X140.289 Y162.850 E4.03784
G1 X139.887 Y162.281 E4.09469
G1 X139.569 Y161.665 E4.15132
G1 X139.336 Y161.012 E4.20787
G1 X139.196 Y160.333 E4.26449
G1 X139.148 Y159.642 E4.32103
G1 X139.196 Y158.949 E4.37773
G1 X139.336 Y158.270 E4.43436
G1 X139.569 Y157.618 E4.49091
G1 X139.887 Y157.001 E4.54754
G1 X140.246 Y156.494 E4.59827
G1 X140.725 Y156.788 F7800.000
G1 F1800
G1 X141.146 Y156.338 E4.64853
G1 X141.624 Y155.950 E4.69884
G1 X142.150 Y155.629 E4.74909
G1 X142.715 Y155.383 E4.79940
G1 X143.310 Y155.216 E4.84987
G1 X143.922 Y155.132 E4.90034
G1 X144.537 Y155.132 E4.95049
G1 X145.149 Y155.216 E5.00096
G1 X145.744 Y155.383 E5.05142
G1 X146.309 Y155.629 E5.10173
G1 X146.835 Y155.950 E5.15198
G1 X147.314 Y156.338 E5.20230
G1 X147.734 Y156.788 E5.25255
G1 X148.092 Y157.293 E5.30306
G1 X148.374 Y157.841 E5.35344
G1 X148.582 Y158.422 E5.40375
G1 X148.706 Y159.026 E5.45409
G1 X148.749 Y159.642 E5.50454
G1 X148.706 Y160.257 E5.55483
G1 X148.582 Y160.860 E5.60515
G1 X148.374 Y161.441 E5.65547
G1 X148.092 Y161.990 E5.70585
G1 X147.734 Y162.494 E5.75636
G1 X147.314 Y162.943 E5.80652
G1 X146.835 Y163.335 E5.85703
G1 X146.308 Y163.653 E5.90729
G1 X145.744 Y163.899 E5.95750
G1 X145.149 Y164.067 E6.00797
G1 X144.537 Y164.150 E6.05844
G1 X143.922 Y164.150 E6.10859
G1 X143.310 Y164.067 E6.15906
G1 X142.715 Y163.899 E6.20953
G1 X142.151 Y163.653 E6.25974
G1 X141.624 Y163.335 E6.31000
G1 X141.145 Y162.943 E6.36051
G1 X140.725 Y162.494 E6.41067
G1 X140.368 Y161.990 E6.46118
G1 X140.085 Y161.441 E6.51156
G1 X139.877 Y160.860 E6.56188
G1 X139.753 Y160.257 E6.61220
G1 X139.710 Y159.642 E6.66249
G1 X139.753 Y159.026 E6.71294
G1 X139.877 Y158.422 E6.76327
G1 X140.085 Y157.841 E6.81359
G1 X140.368 Y157.293 E6.86397
G1 X140.682 Y156.849 E6.90836
G1 X141.128 Y157.116 F7800.000
G1 F1800
G1 X141.500 Y156.718 E6.94601
G1 X141.923 Y156.374 E6.98373
G1 X142.389 Y156.090 E7.02141
G1 X142.889 Y155.872 E7.05911
G1 X143.416 Y155.724 E7.09689
G1 X143.958 Y155.650 E7.13470
G1 X144.502 Y155.650 E7.17229
G1 X145.044 Y155.724 E7.21009
G1 X145.570 Y155.872 E7.24788
G1 X146.070 Y156.090 E7.28557
G1 X146.536 Y156.374 E7.32326
G1 X146.960 Y156.718 E7.36098
G1 X147.332 Y157.116 E7.39863
G1 X147.648 Y157.562 E7.43643
G1 X147.898 Y158.048 E7.47419
G1 X148.082 Y158.562 E7.51191
G1 X148.192 Y159.096 E7.54960
G1 X148.230 Y159.642 E7.58741
G1 X148.192 Y160.186 E7.62510
G1 X148.082 Y160.720 E7.66279
G1 X147.898 Y161.234 E7.70050
G1 X147.648 Y161.720 E7.73827
G1 X147.332 Y162.166 E7.77607
G1 X146.960 Y162.564 E7.81369
G1 X146.536 Y162.910 E7.85152
G1 X146.070 Y163.192 E7.88917
G1 X145.570 Y163.410 E7.92684
G1 X145.044 Y163.558 E7.96462
G1 X144.502 Y163.632 E8.00242
G1 X143.958 Y163.632 E8.04001
G1 X143.416 Y163.558 E8.07782
G1 X142.889 Y163.410 E8.11560
G1 X142.390 Y163.192 E8.15327
G1 X141.923 Y162.910 E8.19092
G1 X141.499 Y162.564 E8.22875
G1 X141.128 Y162.166 E8.26637
G1 X140.811 Y161.720 E8.30417
G1 X140.561 Y161.234 E8.34193
G1 X140.377 Y160.720 E8.37965
G1 X140.267 Y160.186 E8.41734
G1 X140.229 Y159.642 E8.45502
G1 X140.267 Y159.096 E8.49284
G1 X140.377 Y158.562 E8.53053
G1 X140.561 Y158.048 E8.56824
G1 X140.811 Y157.562 E8.60600
G1 X141.084 Y157.177 E8.63862
G1 X141.128 Y157.116 F7800.000
G1 E6.63862 F2400.00000
G92 E0
G1 X37.573 Y159.642 F7800.000
G1 E2.00000 F2400.00000
G1 F1800
G1 X37.525 Y160.333 E2.05654
G1 X37.385 Y161.012 E2.11315
G1 X37.152 Y161.665 E2.16970
G1 X36.834 Y162.281 E2.22634
G1 X36.432 Y162.850 E2.28319
G1 X35.960 Y163.354 E2.33954
G1 X35.421 Y163.794 E2.39636
G1 X34.829 Y164.153 E2.45289
G1 X34.195 Y164.429 E2.50929
G1 X33.526 Y164.617 E2.56607
G1 X32.837 Y164.711 E2.62283
G1 X32.146 Y164.711 E2.67920
G1 X31.457 Y164.617 E2.73597
G1 X30.788 Y164.429 E2.79275
G1 X30.155 Y164.153 E2.84915
G1 X29.562 Y163.794 E2.90568
G1 X29.023 Y163.354 E2.96249
G1 X28.551 Y162.850 E3.01884
G1 X28.149 Y162.281 E3.07570
G1 X27.831 Y161.665 E3.13233
G1 X27.598 Y161.012 E3.18888
G1 X27.458 Y160.333 E3.24550
G1 X27.410 Y159.642 E3.30204
G1 X27.458 Y158.949 E3.35874
G1 X27.598 Y158.270 E3.41537
G1 X27.831 Y157.618 E3.47192
G1 X28.149 Y157.001 E3.52855
G1 X28.551 Y156.432 E3.58541
G1 X29.024 Y155.927 E3.64191
G1 X29.562 Y155.490 E3.69846
G1 X30.153 Y155.130 E3.75491
G1 X30.788 Y154.853 E3.81149
G1 X31.457 Y154.665 E3.86827
G1 X32.146 Y154.571 E3.92503
G1 X32.837 Y154.571 E3.98140
G1 X33.526 Y154.665 E4.03816
G1 X34.195 Y154.853 E4.09495
G1 X34.831 Y155.130 E4.15152
G1 X35.421 Y155.490 E4.20797
G1 X35.959 Y155.927 E4.26452
G1 X36.432 Y156.432 E4.32103
G1 X36.834 Y157.001 E4.37788
G1 X37.152 Y157.618 E4.43452
G1 X37.385 Y158.270 E4.49107
G1 X37.525 Y158.949 E4.54769
G1 X37.568 Y159.567 E4.59827
G1 X37.011 Y159.642 F7800.000
G1 F1800
G1 X36.968 Y160.257 E4.64856
G1 X36.844 Y160.860 E4.69889
G1 X36.636 Y161.441 E4.74920
G1 X36.354 Y161.990 E4.79958
G1 X35.996 Y162.494 E4.85010
G1 X35.576 Y162.943 E4.90026
G1 X35.097 Y163.335 E4.95077
G1 X34.570 Y163.653 E5.00103
G1 X34.006 Y163.899 E5.05124
G1 X33.411 Y164.067 E5.10170
G1 X32.799 Y164.150 E5.15218
G1 X32.184 Y164.150 E5.20232
G1 X31.572 Y164.067 E5.25280
G1 X30.977 Y163.899 E5.30326
G1 X30.413 Y163.653 E5.35347
G1 X29.886 Y163.335 E5.40373
G1 X29.407 Y162.943 E5.45424
G1 X28.987 Y162.494 E5.50440
G1 X28.630 Y161.990 E5.55492
G1 X28.347 Y161.441 E5.60530
G1 X28.139 Y160.860 E5.65561
G1 X28.015 Y160.257 E5.70594
G1 X27.972 Y159.642 E5.75623
G1 X28.015 Y159.026 E5.80668
G1 X28.139 Y158.422 E5.85701
G1 X28.347 Y157.841 E5.90732
G1 X28.630 Y157.293 E5.95770
G1 X28.987 Y156.788 E6.00822
G1 X29.408 Y156.338 E6.05847
G1 X29.886 Y155.950 E6.10878
G1 X30.412 Y155.629 E6.15903
G1 X30.977 Y155.383 E6.20934
G1 X31.572 Y155.216 E6.25981
G1 X32.184 Y155.132 E6.31028
G1 X32.799 Y155.132 E6.36043
G1 X33.411 Y155.216 E6.41090
G1 X34.006 Y155.383 E6.46136
G1 X34.571 Y155.629 E6.51168
G1 X35.097 Y155.950 E6.56192
G1 X35.576 Y156.338 E6.61224
G1 X35.996 Y156.788 E6.66249
G1 X36.354 Y157.293 E6.71300
G1 X36.636 Y157.841 E6.76338
G1 X36.844 Y158.422 E6.81370
G1 X36.968 Y159.026 E6.86403
G1 X37.006 Y159.567 E6.90836
G1 X36.492 Y159.642 F7800.000
G1 F1800
G1 X36.454 Y160.186 E6.94604
G1 X36.344 Y160.720 E6.98373
G1 X36.160 Y161.234 E7.02145
G1 X35.910 Y161.720 E7.05921
G1 X35.594 Y162.166 E7.09701
G1 X35.222 Y162.564 E7.13463
G1 X34.798 Y162.910 E7.17246
G1 X34.332 Y163.192 E7.21011
G1 X33.832 Y163.410 E7.24778
G1 X33.306 Y163.558 E7.28556
G1 X32.764 Y163.632 E7.32337
G1 X32.220 Y163.632 E7.36095
G1 X31.678 Y163.558 E7.39876
G1 X31.151 Y163.410 E7.43654
G1 X30.652 Y163.192 E7.47421
G1 X30.185 Y162.910 E7.51186
G1 X29.761 Y162.564 E7.54969
G1 X29.390 Y162.166 E7.58731
G1 X29.073 Y161.720 E7.62511
G1 X28.823 Y161.234 E7.66287
G1 X28.639 Y160.720 E7.70059
G1 X28.529 Y160.186 E7.73828
G1 X28.491 Y159.642 E7.77596
G1 X28.529 Y159.096 E7.81378
G1 X28.639 Y158.562 E7.85147
G1 X28.823 Y158.048 E7.88919
G1 X29.073 Y157.562 E7.92695
G1 X29.390 Y157.116 E7.96475
G1 X29.762 Y156.718 E8.00240
G1 X30.185 Y156.374 E8.04012
G1 X30.651 Y156.090 E8.07781
G1 X31.151 Y155.872 E8.11550
G1 X31.678 Y155.724 E8.15328
G1 X32.220 Y155.650 E8.19109
G1 X32.764 Y155.650 E8.22868
G1 X33.306 Y155.724 E8.26649
G1 X33.832 Y155.872 E8.30427
G1 X34.332 Y156.090 E8.34196
G1 X34.798 Y156.374 E8.37965
G1 X35.222 Y156.718 E8.41737
G1 X35.594 Y157.116 E8.45502
G1 X35.910 Y157.562 E8.49282
G1 X36.160 Y158.048 E8.53058
G1 X36.344 Y158.562 E8.56830
G1 X36.454 Y159.096 E8.60599
G1 X36.487 Y159.567 E8.63862
G1 X36.492 Y159.642 F7800.000
G1 E6.63862 F2400.00000
G92 E0
G1 X10.652 Y150.705 F7800.000
G1 E2.00000 F2400.00000
G1 F1800
G1 X10.652 Y49.295 E10.27835
G1 X166.069 Y49.295 E22.96541
G1 X166.069 Y150.705 E31.24376
G1 X10.727 Y150.705 E43.92470
G1 X11.213 Y150.144 F7800.000
G1 F1800
G1 X11.213 Y49.856 E52.11145
G1 X165.508 Y49.856 E64.70692
G1 X165.508 Y150.144 E72.89368
G1 X11.288 Y150.144 E85.48303
G1 X11.731 Y149.626 F7800.000
G1 F1800
G1 X11.731 Y50.374 E92.34159
G1 X164.990 Y50.374 E102.93216
G1 X164.990 Y149.626 E109.79073
G1 X11.806 Y149.626 E120.37612
G1 X11.240 Y149.721 F7800.000
G1 E118.37612 F2400.00000
G92 E0
G1 X31.460 Y45.382 F7800.000
G1 E2.00000 F2400.00000
G1 F1800
G1 X30.790 Y45.196 E2.05674
G1 X30.153 Y44.918 E2.11351
G1 X29.562 Y44.558 E2.16996
G1 X29.023 Y44.121 E2.22665
G1 X28.550 Y43.613 E2.28327
G1 X28.149 Y43.047 E2.33989
G1 X27.832 Y42.432 E2.39639
G1 X27.598 Y41.778 E2.45307
G1 X27.458 Y41.097 E2.50983
G1 X27.410 Y40.406 E2.56635
G1 X27.458 Y39.716 E2.62286
G1 X27.598 Y39.035 E2.67962
G1 X27.832 Y38.381 E2.73631
G1 X28.149 Y37.766 E2.79280
G1 X28.550 Y37.200 E2.84943
G1 X29.023 Y36.692 E2.90605
G1 X29.562 Y36.255 E2.96273
G1 X30.153 Y35.895 E3.01918
G1 X30.790 Y35.617 E3.07595
G1 X31.460 Y35.431 E3.13269
G1 X32.146 Y35.337 E3.18926
G1 X32.837 Y35.337 E3.24563
G1 X33.523 Y35.431 E3.30220
G1 X34.193 Y35.617 E3.35894
G1 X34.831 Y35.895 E3.41571
G1 X35.421 Y36.255 E3.47216
G1 X35.960 Y36.692 E3.52885
G1 X36.433 Y37.200 E3.58546
G1 X36.834 Y37.766 E3.64209
G1 X37.151 Y38.381 E3.69859
G1 X37.385 Y39.035 E3.75527
G1 X37.525 Y39.716 E3.81203
G1 X37.573 Y40.406 E3.86854
G1 X37.525 Y41.097 E3.92506
G1 X37.385 Y41.778 E3.98182
G1 X37.151 Y42.432 E4.03850
G1 X36.834 Y43.047 E4.09500
G1 X36.433 Y43.613 E4.15163
G1 X35.960 Y44.121 E4.20824
G1 X35.421 Y44.558 E4.26493
G1 X34.831 Y44.918 E4.32138
G1 X34.193 Y45.196 E4.37815
G1 X33.523 Y45.382 E4.43489
G1 X32.835 Y45.476 E4.49160
G1 X32.135 Y45.474 E4.54874
G1 X31.534 Y45.392 E4.59827
G1 X31.573 Y44.831 F7800.000
G1 F1800
G1 X30.978 Y44.666 E4.64869
G1 X30.412 Y44.419 E4.69912
G1 X29.886 Y44.099 E4.74936
G1 X29.407 Y43.710 E4.79976
G1 X28.987 Y43.258 E4.85012
G1 X28.630 Y42.754 E4.90050
G1 X28.347 Y42.208 E4.95075
G1 X28.139 Y41.626 E5.00114
G1 X28.015 Y41.021 E5.05161
G1 X27.972 Y40.406 E5.10189
G1 X28.015 Y39.792 E5.15216
G1 X28.139 Y39.186 E5.20263
G1 X28.347 Y38.605 E5.25303
G1 X28.630 Y38.058 E5.30327
G1 X28.987 Y37.555 E5.35365
G1 X29.407 Y37.103 E5.40401
G1 X29.886 Y36.714 E5.45441
G1 X30.412 Y36.394 E5.50465
G1 X30.978 Y36.147 E5.55508
G1 X31.573 Y35.982 E5.60551
G1 X32.184 Y35.898 E5.65586
G1 X32.799 Y35.898 E5.70601
G1 X33.410 Y35.982 E5.75637
G1 X34.005 Y36.147 E5.80679
G1 X34.571 Y36.394 E5.85722
G1 X35.097 Y36.714 E5.90747
G1 X35.576 Y37.103 E5.95786
G1 X35.997 Y37.555 E6.00822
G1 X36.353 Y38.058 E6.05860
G1 X36.636 Y38.605 E6.10885
G1 X36.844 Y39.186 E6.15924
G1 X36.968 Y39.792 E6.20971
G1 X37.011 Y40.406 E6.25999
G1 X36.968 Y41.021 E6.31026
G1 X36.844 Y41.626 E6.36074
G1 X36.636 Y42.208 E6.41113
G1 X36.353 Y42.754 E6.46137
G1 X35.997 Y43.258 E6.51175
G1 X35.576 Y43.710 E6.56211
G1 X35.097 Y44.099 E6.61251
G1 X34.571 Y44.419 E6.66276
G1 X34.005 Y44.666 E6.71318
G1 X33.410 Y44.831 E6.76361
G1 X32.798 Y44.915 E6.81405
G1 X32.174 Y44.913 E6.86497
G1 X31.648 Y44.841 E6.90834
G1 X31.678 Y44.323 F7800.000
G1 F1800
G1 X31.152 Y44.177 E6.94609
G1 X30.651 Y43.958 E6.98382
G1 X30.185 Y43.675 E7.02150
G1 X29.761 Y43.330 E7.05925
G1 X29.389 Y42.931 E7.09699
G1 X29.073 Y42.485 E7.13475
G1 X28.823 Y42.001 E7.17240
G1 X28.639 Y41.486 E7.21014
G1 X28.529 Y40.950 E7.24796
G1 X28.491 Y40.406 E7.28563
G1 X28.529 Y39.862 E7.32331
G1 X28.639 Y39.326 E7.36113
G1 X28.823 Y38.812 E7.39887
G1 X29.073 Y38.328 E7.43652
G1 X29.389 Y37.882 E7.47428
G1 X29.761 Y37.482 E7.51202
G1 X30.185 Y37.138 E7.54976
G1 X30.651 Y36.854 E7.58745
G1 X31.152 Y36.636 E7.62518
G1 X31.678 Y36.490 E7.66293
G1 X32.220 Y36.416 E7.70070
G1 X32.764 Y36.416 E7.73829
G1 X33.305 Y36.490 E7.77606
G1 X33.832 Y36.636 E7.81381
G1 X34.332 Y36.854 E7.85154
G1 X34.798 Y37.138 E7.88923
G1 X35.222 Y37.482 E7.92697
G1 X35.594 Y37.882 E7.96471
G1 X35.910 Y38.328 E8.00248
G1 X36.160 Y38.812 E8.04012
G1 X36.344 Y39.326 E8.07786
G1 X36.454 Y39.862 E8.11568
G1 X36.492 Y40.406 E8.15336
G1 X36.454 Y40.950 E8.19104
G1 X36.344 Y41.486 E8.22885
G1 X36.160 Y42.001 E8.26659
G1 X35.910 Y42.485 E8.30424
G1 X35.594 Y42.931 E8.34200
G1 X35.222 Y43.330 E8.37975
G1 X34.798 Y43.675 E8.41749
G1 X34.332 Y43.958 E8.45518
G1 X33.832 Y44.177 E8.49291
G1 X33.305 Y44.323 E8.53065
G1 X32.763 Y44.397 E8.56845
G1 X32.210 Y44.395 E8.60669
G1 X31.752 Y44.333 E8.63860
G1 X31.678 Y44.323 F7800.000
G1 E6.63860 F2400.00000
G92 E0
G1 X139.148 Y40.406 F7800.000
G1 E2.00000 F2400.00000
G1 F1800
G1 X139.196 Y39.716 E2.05652
G1 X139.336 Y39.035 E2.11327
G1 X139.570 Y38.381 E2.16996
G1 X139.887 Y37.766 E2.22646
G1 X140.288 Y37.200 E2.28308
G1 X140.761 Y36.692 E2.33970
G1 X141.300 Y36.255 E2.39638
G1 X141.891 Y35.895 E2.45283
G1 X142.528 Y35.617 E2.50961
G1 X143.198 Y35.431 E2.56635
G1 X143.886 Y35.337 E2.62305
G1 X144.586 Y35.339 E2.68020
G1 X145.261 Y35.431 E2.73584
G1 X145.931 Y35.617 E2.79258
G1 X146.569 Y35.895 E2.84936
G1 X147.159 Y36.255 E2.90581
G1 X147.698 Y36.692 E2.96249
G1 X148.171 Y37.200 E3.01911
G1 X148.572 Y37.766 E3.07573
G1 X148.889 Y38.381 E3.13223
G1 X149.123 Y39.035 E3.18892
G1 X149.263 Y39.716 E3.24568
G1 X149.311 Y40.406 E3.30219
G1 X149.263 Y41.097 E3.35870
G1 X149.123 Y41.778 E3.41547
G1 X148.889 Y42.432 E3.47215
G1 X148.572 Y43.047 E3.52865
G1 X148.171 Y43.613 E3.58527
G1 X147.698 Y44.121 E3.64189
G1 X147.159 Y44.558 E3.69858
G1 X146.569 Y44.918 E3.75503
G1 X145.931 Y45.196 E3.81180
G1 X145.261 Y45.382 E3.86854
G1 X144.575 Y45.476 E3.92510
G1 X143.884 Y45.476 E3.98147
G1 X143.198 Y45.382 E4.03804
G1 X142.528 Y45.196 E4.09478
