; generated by Slic3r 1.3.0 on 2025-05-11 at 17:00:00

; external perimeters extrusion width = 0.55mm (7.28mm^3/s)
; perimeters extrusion width = 0.70mm (11.44mm^3/s)
; infill extrusion width = 0.63mm (13.45mm^3/s)
; solid infill extrusion width = 0.70mm (3.81mm^3/s)
; top infill extrusion width = 0.70mm (2.86mm^3/s)

M107
M190 S50 ; set bed temperature and wait for it to be reached
M104 S200 ; set temperature
G28 ; home all axes
G1 Z5 F5000 ; lift nozzle

; Filament gcode

M109 S200 ; set temperature and wait for it to be reached
G21 ; set units to millimeters
G90 ; use absolute coordinates
M82 ; use absolute distances for extrusion
G92 E0
G1 Z0.350 F7800.000
G1 E-2.00000 F2400.00000
G92 E0
G1 X14.486 Y34.682 F7800.000
G1 E2.00000 F2400.00000
G1 F1800
G1 X37.765 Y21.645 E4.17800
G1 X40.971 Y20.809 E4.44845
G1 X178.782 Y20.809 E15.69832
G1 X181.029 Y21.206 E15.88462
G1 X182.230 Y21.788 E15.99356
G1 X203.448 Y34.896 E18.02952
G1 X205.152 Y36.415 E18.21583
G1 X206.232 Y38.425 E18.40214
G1 X206.561 Y40.478 E18.57182
G1 X206.561 Y160.489 E28.36867
G1 X206.164 Y162.737 E28.55498
G1 X205.021 Y164.712 E28.74129
G1 X203.258 Y166.184 E28.92875
G1 X182.040 Y178.325 E30.92436
G1 X178.782 Y179.191 E31.19960
G1 X40.971 Y179.191 E42.44946
G1 X38.922 Y178.863 E42.61887
G1 X-2.049 Y165.393 E46.13954
G1 X-4.060 Y164.314 E46.32584
G1 X-5.580 Y162.611 E46.51215
G1 X-6.425 Y160.491 E46.69846
G1 X-6.561 Y159.160 E46.80767
G1 X-6.561 Y123.279 E49.73677
G1 X-6.416 Y121.909 E49.84921
G1 X11.276 Y39.036 E56.76677
G1 X12.133 Y36.921 E56.95308
G1 X14.432 Y34.733 E57.21215
G1 E55.21215 F2400.00000
G92 E0
G1 X52.609 Y156.217 F7800.000
G1 E2.00000 F2400.00000
G1 F1800
G1 X53.297 Y156.033 E2.05816
G1 X53.986 Y155.972 E2.11464
G1 X54.713 Y156.032 E2.17414
G1 X55.405 Y156.217 E2.23263
G1 X56.051 Y156.518 E2.29079
G1 X56.634 Y156.927 E2.34895
G1 X57.138 Y157.431 E2.40711
G1 X57.547 Y158.014 E2.46527
G1 X57.848 Y158.660 E2.52344
G1 X58.032 Y159.348 E2.58160
G1 X58.094 Y160.058 E2.63976
G1 X58.032 Y160.768 E2.69792
G1 X57.848 Y161.456 E2.75608
G1 X57.547 Y162.102 E2.81424
G1 X57.150 Y162.668 E2.87072
G1 X56.638 Y163.187 E2.93022
G1 X56.051 Y163.598 E2.98871
G1 X55.405 Y163.899 E3.04687
G1 X54.717 Y164.083 E3.10503
G1 X54.007 Y164.145 E3.16319
G1 X53.297 Y164.083 E3.22136
G1 X52.609 Y163.899 E3.27952
G1 X51.963 Y163.598 E3.33768
G1 X51.380 Y163.189 E3.39584
G1 X50.890 Y162.700 E3.45232
G1 X50.469 Y162.105 E3.51182
G1 X50.166 Y161.456 E3.57031
G1 X49.982 Y160.768 E3.62847
G1 X49.920 Y160.058 E3.68663
G1 X49.982 Y159.348 E3.74479
G1 X50.166 Y158.660 E3.80295
G1 X50.467 Y158.014 E3.86111
G1 X50.876 Y157.431 E3.91927
G1 X51.380 Y156.927 E3.97744
G1 X51.963 Y156.518 E4.03560
G1 X52.541 Y156.249 E4.08764
G1 X52.802 Y156.746 F7800.000
G1 F1800
G1 X53.395 Y156.587 E4.13779
G1 X53.988 Y156.535 E4.18638
G1 X54.617 Y156.587 E4.23787
G1 X55.212 Y156.746 E4.28821
G1 X55.769 Y157.006 E4.33836
G1 X56.272 Y157.358 E4.38851
G1 X56.707 Y157.793 E4.43866
G1 X57.059 Y158.296 E4.48881
G1 X57.319 Y158.853 E4.53895
G1 X57.478 Y159.446 E4.58910
G1 X57.531 Y160.058 E4.63925
G1 X57.478 Y160.670 E4.68940
G1 X57.319 Y161.263 E4.73955
G1 X57.059 Y161.820 E4.78970
G1 X56.718 Y162.308 E4.83829
G1 X56.274 Y162.756 E4.88978
G1 X55.769 Y163.110 E4.94012
G1 X55.212 Y163.370 E4.99027
G1 X54.619 Y163.529 E5.04042
G1 X54.007 Y163.582 E5.09057
G1 X53.395 Y163.529 E5.14072
G1 X52.802 Y163.370 E5.19086
G1 X52.245 Y163.110 E5.24101
G1 X51.742 Y162.758 E5.29116
G1 X51.321 Y162.337 E5.33976
G1 X50.956 Y161.822 E5.39125
G1 X50.695 Y161.263 E5.44159
G1 X50.536 Y160.670 E5.49173
G1 X50.483 Y160.058 E5.54188
G1 X50.536 Y159.446 E5.59203
G1 X50.695 Y158.853 E5.64218
G1 X50.955 Y158.296 E5.69233
G1 X51.307 Y157.793 E5.74248
G1 X51.742 Y157.358 E5.79263
G1 X52.245 Y157.006 E5.84278
G1 X52.734 Y156.778 E5.88680
G1 X52.979 Y157.235 F7800.000
G1 F1800
G1 X53.485 Y157.099 E5.92299
G1 X53.990 Y157.055 E5.95797
G1 X54.528 Y157.099 E5.99529
G1 X55.034 Y157.235 E6.03154
G1 X55.509 Y157.456 E6.06772
G1 X55.938 Y157.757 E6.10391
G1 X56.308 Y158.127 E6.14010
G1 X56.609 Y158.556 E6.17629
G1 X56.830 Y159.031 E6.21248
G1 X56.966 Y159.536 E6.24867
G1 X57.011 Y160.058 E6.28485
G1 X56.966 Y160.580 E6.32104
G1 X56.830 Y161.086 E6.35723
G1 X56.609 Y161.560 E6.39342
G1 X56.318 Y161.975 E6.42840
G1 X55.939 Y162.359 E6.46572
G1 X55.509 Y162.660 E6.50197
G1 X55.034 Y162.881 E6.53816
G1 X54.529 Y163.017 E6.57434
G1 X54.007 Y163.062 E6.61053
G1 X53.485 Y163.017 E6.64672
G1 X52.979 Y162.881 E6.68291
G1 X52.505 Y162.660 E6.71910
G1 X52.076 Y162.360 E6.75529
G1 X51.718 Y162.002 E6.79027
G1 X51.405 Y161.561 E6.82759
G1 X51.184 Y161.086 E6.86383
G1 X51.048 Y160.580 E6.90002
G1 X51.003 Y160.058 E6.93621
G1 X51.048 Y159.536 E6.97240
G1 X51.184 Y159.031 E7.00859
G1 X51.405 Y158.556 E7.04478
G1 X51.705 Y158.127 E7.08096
G1 X52.076 Y157.757 E7.11715
G1 X52.505 Y157.456 E7.15334
G1 X52.911 Y157.267 E7.18435
G1 X52.979 Y157.235 F7800.000
G1 E5.18435 F2400.00000
G92 E0
G1 X161.658 Y159.642 F7800.000
G1 E2.00000 F2400.00000
G1 F1800
G1 X161.720 Y158.932 E2.05816
G1 X161.905 Y158.244 E2.11632
G1 X162.206 Y157.598 E2.17448
G1 X162.614 Y157.014 E2.23265
G1 X163.118 Y156.511 E2.29081
G1 X163.702 Y156.102 E2.34897
G1 X164.348 Y155.801 E2.40713
G1 X165.036 Y155.616 E2.46529
G1 X165.725 Y155.556 E2.52177
G1 X166.451 Y155.615 E2.58127
G1 X167.143 Y155.801 E2.63976
G1 X167.789 Y156.102 E2.69792
G1 X168.373 Y156.511 E2.75608
G1 X168.877 Y157.014 E2.81424
G1 X169.285 Y157.598 E2.87240
G1 X169.586 Y158.244 E2.93057
G1 X169.765 Y158.912 E2.98704
G1 X169.833 Y159.638 E3.04654
G1 X169.771 Y160.351 E3.10503
G1 X169.586 Y161.040 E3.16319
G1 X169.294 Y161.667 E3.21967
G1 X168.879 Y162.266 E3.27917
G1 X168.373 Y162.773 E3.33766
G1 X167.789 Y163.181 E3.39582
G1 X167.143 Y163.483 E3.45398
G1 X166.455 Y163.667 E3.51214
G1 X165.745 Y163.729 E3.57030
G1 X165.036 Y163.667 E3.62847
G1 X164.348 Y163.483 E3.68663
G1 X163.702 Y163.181 E3.74479
G1 X163.118 Y162.773 E3.80295
G1 X162.614 Y162.269 E3.86111
G1 X162.206 Y161.685 E3.91927
G1 X161.905 Y161.040 E3.97744
G1 X161.720 Y160.351 E4.03560
G1 X161.665 Y159.716 E4.08764
G1 X162.221 Y159.642 F7800.000
G1 F1800
G1 X162.275 Y159.030 E4.13778
G1 X162.434 Y158.436 E4.18793
G1 X162.693 Y157.879 E4.23808
G1 X163.046 Y157.376 E4.28823
G1 X163.480 Y156.942 E4.33838
G1 X163.983 Y156.590 E4.38853
G1 X164.540 Y156.330 E4.43868
G1 X165.133 Y156.171 E4.48882
G1 X165.727 Y156.119 E4.53742
G1 X166.355 Y156.170 E4.58891
G1 X166.951 Y156.330 E4.63925
G1 X167.508 Y156.590 E4.68940
G1 X168.011 Y156.942 E4.73955
G1 X168.445 Y157.376 E4.78969
G1 X168.798 Y157.880 E4.83984
G1 X169.057 Y158.436 E4.88999
G1 X169.211 Y159.011 E4.93859
G1 X169.270 Y159.639 E4.99008
G1 X169.216 Y160.254 E5.04042
G1 X169.057 Y160.847 E5.09056
G1 X168.806 Y161.387 E5.13916
G1 X168.447 Y161.905 E5.19065
G1 X168.011 Y162.341 E5.24099
G1 X167.508 Y162.694 E5.29114
G1 X166.951 Y162.953 E5.34129
G1 X166.357 Y163.112 E5.39144
G1 X165.745 Y163.166 E5.44158
G1 X165.134 Y163.112 E5.49173
G1 X164.540 Y162.953 E5.54188
G1 X163.983 Y162.694 E5.59203
G1 X163.480 Y162.341 E5.64218
G1 X163.046 Y161.907 E5.69233
G1 X162.693 Y161.404 E5.74248
G1 X162.434 Y160.847 E5.79262
G1 X162.275 Y160.254 E5.84277
G1 X162.228 Y159.716 E5.88680
G1 X162.741 Y159.642 F7800.000
G1 F1800
G1 X162.787 Y159.120 E5.92299
G1 X162.922 Y158.614 E5.95917
G1 X163.144 Y158.139 E5.99536
G1 X163.444 Y157.710 E6.03155
G1 X163.814 Y157.340 E6.06774
G1 X164.243 Y157.040 E6.10393
G1 X164.718 Y156.818 E6.14012
G1 X165.224 Y156.683 E6.17630
G1 X165.728 Y156.639 E6.21129
G1 X166.266 Y156.683 E6.24861
G1 X166.773 Y156.818 E6.28485
G1 X167.248 Y157.040 E6.32104
G1 X167.677 Y157.340 E6.35723
G1 X168.047 Y157.710 E6.39342
G1 X168.347 Y158.139 E6.42961
G1 X168.569 Y158.614 E6.46579
G1 X168.700 Y159.103 E6.50078
G1 X168.750 Y159.641 E6.53810
G1 X168.704 Y160.163 E6.57434
G1 X168.569 Y160.669 E6.61053
G1 X168.355 Y161.128 E6.64551
G1 X168.048 Y161.572 E6.68283
G1 X167.677 Y161.943 E6.71908
G1 X167.248 Y162.243 E6.75527
G1 X166.773 Y162.465 E6.79145
G1 X166.267 Y162.600 E6.82764
G1 X165.745 Y162.646 E6.86383
G1 X165.224 Y162.600 E6.90002
G1 X164.718 Y162.465 E6.93621
G1 X164.243 Y162.243 E6.97240
G1 X163.814 Y161.943 E7.00858
G1 X163.444 Y161.573 E7.04477
G1 X163.144 Y161.144 E7.08096
G1 X162.922 Y160.669 E7.11715
G1 X162.787 Y160.163 E7.15334
G1 X162.748 Y159.716 E7.18434
G1 X162.741 Y159.642 F7800.000
G1 E5.18434 F2400.00000
G92 E0
G1 X165.745 Y44.494 F7800.000
G1 E2.00000 F2400.00000
G1 F1800
G1 X165.036 Y44.431 E2.05816
G1 X164.348 Y44.247 E2.11632
G1 X163.702 Y43.946 E2.17449
G1 X163.118 Y43.537 E2.23265
G1 X162.614 Y43.033 E2.29081
G1 X162.206 Y42.450 E2.34897
G1 X161.905 Y41.804 E2.40713
G1 X161.720 Y41.116 E2.46529
G1 X161.658 Y40.406 E2.52346
G1 X161.720 Y39.696 E2.58162
G1 X161.905 Y39.008 E2.63978
G1 X162.206 Y38.362 E2.69794
G1 X162.614 Y37.779 E2.75610
G1 X163.118 Y37.275 E2.81426
G1 X163.702 Y36.866 E2.87242
G1 X164.348 Y36.565 E2.93059
G1 X165.036 Y36.381 E2.98875
G1 X165.725 Y36.321 E3.04523
G1 X166.451 Y36.380 E3.10473
G1 X167.143 Y36.565 E3.16321
G1 X167.789 Y36.866 E3.22138
G1 X168.373 Y37.275 E3.27954
G1 X168.877 Y37.779 E3.33770
G1 X169.285 Y38.362 E3.39586
G1 X169.586 Y39.008 E3.45402
G1 X169.765 Y39.676 E3.51050
G1 X169.833 Y40.402 E3.57000
G1 X169.771 Y41.116 E3.62849
G1 X169.586 Y41.804 E3.68665
G1 X169.285 Y42.450 E3.74481
G1 X168.877 Y43.033 E3.80297
G1 X168.387 Y43.523 E3.85945
G1 X167.793 Y43.944 E3.91895
G1 X167.143 Y44.247 E3.97744
G1 X166.455 Y44.431 E4.03560
G1 X165.820 Y44.487 E4.08764
G1 X165.745 Y43.930 F7800.000
G1 F1800
G1 X165.133 Y43.877 E4.13779
G1 X164.540 Y43.718 E4.18793
G1 X163.983 Y43.458 E4.23808
G1 X163.480 Y43.106 E4.28823
G1 X163.046 Y42.671 E4.33838
G1 X162.693 Y42.168 E4.38853
G1 X162.434 Y41.611 E4.43868
G1 X162.275 Y41.018 E4.48882
G1 X162.221 Y40.406 E4.53897
G1 X162.275 Y39.794 E4.58912
G1 X162.434 Y39.201 E4.63927
G1 X162.693 Y38.644 E4.68942
G1 X163.046 Y38.141 E4.73957
G1 X163.480 Y37.706 E4.78971
G1 X163.983 Y37.354 E4.83986
G1 X164.540 Y37.094 E4.89001
G1 X165.133 Y36.935 E4.94016
G1 X165.727 Y36.884 E4.98876
G1 X166.355 Y36.935 E5.04025
G1 X166.951 Y37.094 E5.09059
G1 X167.508 Y37.354 E5.14073
G1 X168.011 Y37.706 E5.19088
G1 X168.445 Y38.141 E5.24103
G1 X168.798 Y38.644 E5.29118
G1 X169.057 Y39.201 E5.34133
G1 X169.211 Y39.776 E5.38992
G1 X169.270 Y40.404 E5.44141
G1 X169.216 Y41.018 E5.49175
G1 X169.057 Y41.611 E5.54190
G1 X168.798 Y42.168 E5.59205
G1 X168.445 Y42.671 E5.64220
G1 X168.024 Y43.092 E5.69080
G1 X167.510 Y43.457 E5.74228
G1 X166.951 Y43.718 E5.79262
G1 X166.357 Y43.877 E5.84277
G1 X165.820 Y43.924 E5.88680
G1 X165.745 Y43.410 F7800.000
G1 F1800
G1 X165.224 Y43.365 E5.92299
G1 X164.718 Y43.229 E5.95917
G1 X164.243 Y43.008 E5.99536
G1 X163.814 Y42.708 E6.03155
G1 X163.444 Y42.337 E6.06774
G1 X163.144 Y41.908 E6.10393
G1 X162.922 Y41.434 E6.14012
G1 X162.787 Y40.928 E6.17630
G1 X162.741 Y40.406 E6.21249
G1 X162.787 Y39.884 E6.24868
G1 X162.922 Y39.379 E6.28487
G1 X163.144 Y38.904 E6.32106
G1 X163.444 Y38.475 E6.35725
G1 X163.814 Y38.105 E6.39343
G1 X164.243 Y37.804 E6.42962
G1 X164.718 Y37.583 E6.46581
G1 X165.224 Y37.447 E6.50200
G1 X165.728 Y37.403 E6.53698
G1 X166.266 Y37.447 E6.57430
G1 X166.773 Y37.583 E6.61055
G1 X167.248 Y37.804 E6.64673
G1 X167.677 Y38.105 E6.68292
G1 X168.047 Y38.475 E6.71911
G1 X168.347 Y38.904 E6.75530
G1 X168.569 Y39.379 E6.79149
G1 X168.700 Y39.868 E6.82647
G1 X168.750 Y40.405 E6.86379
G1 X168.704 Y40.928 E6.90004
G1 X168.569 Y41.434 E6.93622
G1 X168.347 Y41.908 E6.97241
G1 X168.047 Y42.337 E7.00860
G1 X167.689 Y42.695 E7.04358
G1 X167.248 Y43.008 E7.08090
G1 X166.773 Y43.229 E7.11715
G1 X166.267 Y43.365 E7.15334
G1 X165.820 Y43.404 E7.18434
G1 X165.745 Y43.410 F7800.000
G1 E5.18434 F2400.00000
G92 E0
G1 X58.093 Y40.406 F7800.000
G1 E2.00000 F2400.00000
G1 F1800
G1 X58.031 Y41.116 E2.05816
G1 X57.847 Y41.804 E2.11632
G1 X57.546 Y42.450 E2.17449
G1 X57.137 Y43.033 E2.23265
G1 X56.633 Y43.537 E2.29081
G1 X56.050 Y43.946 E2.34897
G1 X55.404 Y44.247 E2.40713
G1 X54.716 Y44.431 E2.46529
G1 X54.006 Y44.494 E2.52345
G1 X53.296 Y44.431 E2.58162
G1 X52.608 Y44.247 E2.63978
G1 X51.962 Y43.946 E2.69794
G1 X51.379 Y43.537 E2.75610
G1 X50.889 Y43.048 E2.81258
G1 X50.468 Y42.453 E2.87208
G1 X50.165 Y41.804 E2.93057
G1 X49.981 Y41.116 E2.98873
G1 X49.919 Y40.406 E3.04689
G1 X49.981 Y39.696 E3.10505
G1 X50.165 Y39.008 E3.16321
G1 X50.466 Y38.362 E3.22137
G1 X50.875 Y37.779 E3.27954
G1 X51.379 Y37.275 E3.33770
G1 X51.962 Y36.866 E3.39586
G1 X52.608 Y36.565 E3.45402
G1 X53.296 Y36.381 E3.51218
G1 X53.985 Y36.321 E3.56866
G1 X54.712 Y36.380 E3.62816
G1 X55.404 Y36.565 E3.68665
G1 X56.050 Y36.866 E3.74481
G1 X56.633 Y37.275 E3.80297
G1 X57.137 Y37.779 E3.86113
G1 X57.546 Y38.362 E3.91929
G1 X57.847 Y39.008 E3.97746
G1 X58.031 Y39.696 E4.03562
G1 X58.087 Y40.331 E4.08766
G1 X57.530 Y40.406 F7800.000
G1 F1800
G1 X57.477 Y41.018 E4.13781
G1 X57.318 Y41.611 E4.18795
G1 X57.058 Y42.168 E4.23810
G1 X56.706 Y42.671 E4.28825
G1 X56.271 Y43.106 E4.33840
G1 X55.768 Y43.458 E4.38855
G1 X55.211 Y43.718 E4.43870
G1 X54.618 Y43.877 E4.48884
G1 X54.006 Y43.930 E4.53899
G1 X53.394 Y43.877 E4.58914
G1 X52.801 Y43.718 E4.63929
G1 X52.244 Y43.458 E4.68944
G1 X51.741 Y43.106 E4.73959
G1 X51.320 Y42.685 E4.78818
G1 X50.955 Y42.170 E4.83967
G1 X50.694 Y41.611 E4.89001
G1 X50.535 Y41.018 E4.94016
G1 X50.482 Y40.406 E4.99031
G1 X50.535 Y39.794 E5.04046
G1 X50.694 Y39.201 E5.09061
G1 X50.954 Y38.644 E5.14075
G1 X51.306 Y38.141 E5.19090
G1 X51.741 Y37.706 E5.24105
G1 X52.244 Y37.354 E5.29120
G1 X52.801 Y37.094 E5.34135
G1 X53.394 Y36.935 E5.39150
G1 X53.987 Y36.884 E5.44009
G1 X54.616 Y36.935 E5.49158
G1 X55.211 Y37.094 E5.54192
G1 X55.768 Y37.354 E5.59207
G1 X56.271 Y37.706 E5.64222
G1 X56.706 Y38.141 E5.69237
G1 X57.058 Y38.644 E5.74251
G1 X57.318 Y39.201 E5.79266
G1 X57.477 Y39.794 E5.84281
G1 X57.524 Y40.331 E5.88684
G1 X57.010 Y40.406 F7800.000
G1 F1800
G1 X56.965 Y40.928 E5.92303
G1 X56.829 Y41.434 E5.95921
G1 X56.608 Y41.908 E5.99540
G1 X56.307 Y42.337 E6.03159
G1 X55.937 Y42.708 E6.06778
G1 X55.508 Y43.008 E6.10397
G1 X55.034 Y43.229 E6.14016
G1 X54.528 Y43.365 E6.17634
G1 X54.006 Y43.410 E6.21253
G1 X53.484 Y43.365 E6.24872
G1 X52.978 Y43.229 E6.28491
G1 X52.504 Y43.008 E6.32110
G1 X52.075 Y42.708 E6.35729
G1 X51.717 Y42.350 E6.39227
G1 X51.404 Y41.909 E6.42959
G1 X51.183 Y41.434 E6.46583
G1 X51.047 Y40.928 E6.50202
G1 X51.002 Y40.406 E6.53821
G1 X51.047 Y39.884 E6.57440
G1 X51.183 Y39.379 E6.61059
G1 X51.404 Y38.904 E6.64678
G1 X51.705 Y38.475 E6.68296
G1 X52.075 Y38.105 E6.71915
G1 X52.504 Y37.804 E6.75534
G1 X52.978 Y37.583 E6.79153
G1 X53.484 Y37.447 E6.82772
G1 X53.989 Y37.403 E6.86270
G1 X54.527 Y37.447 E6.90002
G1 X55.034 Y37.583 E6.93626
G1 X55.508 Y37.804 E6.97245
G1 X55.937 Y38.105 E7.00864
G1 X56.307 Y38.475 E7.04483
G1 X56.608 Y38.904 E7.08102
G1 X56.829 Y39.379 E7.11721
G1 X56.965 Y39.884 E7.15339
G1 X57.004 Y40.331 E7.18440
G1 X57.010 Y40.406 F7800.000
G1 E5.18440 F2400.00000
G92 E0
G1 X65.689 Y41.760 F7800.000
G1 E2.00000 F2400.00000
G1 F1800
G1 X154.063 Y41.760 E9.21421
G1 X154.063 Y28.724 E10.27839
G1 X177.428 Y28.724 E12.18569
G1 X177.428 Y41.832 E13.25571
G1 X198.646 Y41.832 E14.98782
G1 X198.646 Y159.135 E24.56362
G1 X177.428 Y159.135 E26.29573
G1 X177.428 Y171.276 E27.28682
G1 X154.063 Y171.276 E29.19412
G1 X154.063 Y158.240 E30.25830
G1 X65.689 Y158.240 E37.47251
G1 X65.689 Y171.276 E38.53669
G1 X42.325 Y171.276 E40.44399
G1 X42.325 Y158.240 E41.50817
G1 X19.977 Y158.240 E43.33247
G1 X19.977 Y157.806 E43.36786
G1 X1.354 Y157.806 E44.88812
G1 X1.354 Y124.633 E47.59616
G1 X19.046 Y124.633 E49.04040
G1 X19.046 Y41.760 E55.80552
G1 X42.325 Y41.760 E57.70583
G1 X42.325 Y28.724 E58.77001
G1 X65.689 Y28.724 E60.67731
G1 X65.689 Y41.685 E61.73537
G1 X66.250 Y41.199 F7800.000
G1 F1800
G1 X153.502 Y41.199 E68.85799
G1 X153.502 Y28.163 E69.92216
G1 X177.989 Y28.163 E71.92106
G1 X177.989 Y41.271 E72.99107
G1 X199.207 Y41.271 E74.72319
G1 X199.207 Y159.696 E84.39057
G1 X177.989 Y159.696 E86.12269
G1 X177.989 Y171.837 E87.11378
