; generated by Slic3r 1.3.0 on 2025-05-11 at 16:24:28

; external perimeters extrusion width = 0.55mm (7.28mm^3/s)
; perimeters extrusion width = 0.70mm (11.44mm^3/s)
; infill extrusion width = 0.63mm (13.45mm^3/s)
; solid infill extrusion width = 0.70mm (3.81mm^3/s)
; top infill extrusion width = 0.70mm (2.86mm^3/s)

M107
M190 S50 ; set bed temperature and wait for it to be reached
M104 S200 ; set temperature
G28 ; home all axes
G1 Z5 F5000 ; lift nozzle

; Filament gcode

M109 S200 ; set temperature and wait for it to be reached
G21 ; set units to millimeters
G90 ; use absolute coordinates
M82 ; use absolute distances for extrusion
G92 E0
G1 Z0.350 F7800.000
G1 E-2.00000 F2400.00000
G92 E0
G1 X18.342 Y46.824 F7800.000
G1 E2.00000 F2400.00000
G1 F1800
G1 X21.612 Y45.950 E2.27636
G1 X167.974 Y45.950 E14.22424
G1 X168.964 Y46.026 E14.30533
G1 X184.794 Y48.443 E15.61251
G1 X186.956 Y49.174 E15.79882
G1 X188.736 Y50.602 E15.98513
G1 X189.920 Y52.554 E16.17144
G1 X190.364 Y54.929 E16.36867
G1 X190.364 Y73.552 E17.88891
G1 X190.219 Y74.925 E18.00167
G1 X174.390 Y148.862 E24.17412
G1 X173.531 Y150.977 E24.36043
G1 X172.000 Y152.669 E24.54674
G1 X169.982 Y153.735 E24.73305
G1 X167.974 Y154.050 E24.89894
G1 X21.612 Y154.050 E36.84682
G1 X19.365 Y153.653 E37.03313
G1 X17.389 Y152.510 E37.21943
G1 X15.925 Y150.759 E37.40574
G1 X15.051 Y147.489 E37.68210
G1 X15.051 Y52.511 E45.43535
G1 X15.448 Y50.264 E45.62166
G1 X16.591 Y48.288 E45.80797
G1 X18.284 Y46.872 E45.98816
G1 E43.98816 F2400.00000
G92 E0
G1 X132.611 Y71.643 F7800.000
G1 E2.00000 F2400.00000
G1 F1800
G1 X142.768 Y71.643 E2.82915
G1 X142.768 Y130.220 E7.61094
G1 X132.611 Y130.220 E8.44008
G1 X132.611 Y71.718 E13.21575
G1 X133.172 Y72.204 F7800.000
G1 F1800
G1 X142.207 Y72.204 E13.95331
G1 X142.207 Y129.659 E18.64350
G1 X133.172 Y129.659 E19.38106
G1 X133.172 Y72.279 E24.06513
G1 X133.690 Y72.722 F7800.000
G1 F1800
G1 X141.689 Y72.722 E24.61789
G1 X141.689 Y129.141 E28.51659
G1 X133.690 Y129.141 E29.06936
G1 X133.690 Y72.797 E32.96288
G1 X133.666 Y72.222 F7800.000
G1 E30.96288 F2400.00000
G92 E0
G1 X126.007 Y71.643 F7800.000
G1 E2.00000 F2400.00000
G1 F1800
G1 X126.007 Y130.220 E6.78179
G1 X115.850 Y130.220 E7.61094
G1 X115.850 Y71.643 E12.39272
G1 X125.932 Y71.643 E13.21575
G1 X125.446 Y72.204 F7800.000
G1 F1800
G1 X125.446 Y129.659 E17.90594
G1 X116.411 Y129.659 E18.64350
G1 X116.411 Y72.204 E23.33369
G1 X125.371 Y72.204 E24.06513
G1 X124.928 Y72.722 F7800.000
G1 F1800
G1 X124.928 Y129.141 E27.96383
G1 X116.929 Y129.141 E28.51659
G1 X116.929 Y72.722 E32.41529
G1 X124.853 Y72.722 E32.96288
G1 X125.372 Y72.492 F7800.000
G1 E30.96288 F2400.00000
G92 E0
G1 X109.246 Y71.643 F7800.000
G1 E2.00000 F2400.00000
G1 F1800
G1 X109.246 Y130.220 E6.78179
G1 X99.089 Y130.220 E7.61094
G1 X99.089 Y71.643 E12.39272
G1 X109.171 Y71.643 E13.21575
G1 X108.685 Y72.204 F7800.000
G1 F1800
G1 X108.685 Y129.659 E17.90594
G1 X99.650 Y129.659 E18.64350
G1 X99.650 Y72.204 E23.33370
G1 X108.610 Y72.204 E24.06513
G1 X108.167 Y72.722 F7800.000
G1 F1800
G1 X108.167 Y129.141 E27.96383
G1 X100.168 Y129.141 E28.51660
G1 X100.168 Y72.722 E32.41530
G1 X108.092 Y72.722 E32.96288
G1 X108.612 Y72.492 F7800.000
G1 E30.96288 F2400.00000
G92 E0
G1 X92.486 Y89.858 F7800.000
G1 E2.00000 F2400.00000
G1 F1800
G1 X92.486 Y130.220 E5.29483
G1 X82.329 Y130.220 E6.12398
G1 X82.329 Y89.858 E9.41882
G1 X92.411 Y89.858 E10.24185
G1 X91.925 Y90.419 F7800.000
G1 F1800
G1 X91.925 Y129.659 E13.44509
G1 X82.890 Y129.659 E14.18265
G1 X82.890 Y90.419 E17.38589
G1 X91.850 Y90.419 E18.11733
G1 X91.407 Y90.937 F7800.000
G1 F1800
G1 X91.407 Y129.141 E20.75731
G1 X83.408 Y129.141 E21.31008
G1 X83.408 Y90.937 E23.95006
G1 X91.332 Y90.937 E24.49765
G1 X91.856 Y90.717 F7800.000
G1 E22.49765 F2400.00000
G92 E0
G1 X75.725 Y89.858 F7800.000
G1 E2.00000 F2400.00000
G1 F1800
G1 X75.725 Y130.220 E5.29483
G1 X63.706 Y130.220 E6.27601
G1 X63.706 Y89.858 E9.57084
G1 X75.650 Y89.858 E10.54590
G1 X75.164 Y90.419 F7800.000
G1 F1800
G1 X75.164 Y129.659 E13.74914
G1 X64.267 Y129.659 E14.63872
G1 X64.267 Y90.419 E17.84197
G1 X75.089 Y90.419 E18.72543
G1 X74.646 Y90.937 F7800.000
G1 F1800
G1 X74.646 Y129.141 E21.36541
G1 X64.785 Y129.141 E22.04687
G1 X64.785 Y90.937 E24.68685
G1 X74.571 Y90.937 E25.36312
G1 X75.099 Y90.724 F7800.000
G1 E23.36312 F2400.00000
G92 E0
G1 X56.659 Y90.266 F7800.000
G1 E2.00000 F2400.00000
G1 F1800
G1 X56.659 Y130.220 E5.26154
G1 X44.639 Y130.220 E6.24272
G1 X44.639 Y90.266 E9.50426
G1 X56.584 Y90.266 E10.47931
G1 X56.098 Y90.827 F7800.000
G1 F1800
G1 X56.098 Y129.659 E13.64926
G1 X45.200 Y129.659 E14.53884
G1 X45.200 Y90.827 E17.70879
G1 X56.023 Y90.827 E18.59225
G1 X55.580 Y91.345 F7800.000
G1 F1800
G1 X55.580 Y129.141 E21.20405
G1 X45.718 Y129.141 E21.88551
G1 X45.718 Y91.345 E24.49731
G1 X55.505 Y91.345 E25.17358
G1 X56.032 Y91.132 F7800.000
G1 E23.17358 F2400.00000
G92 E0
G1 X166.620 Y72.198 F7800.000
G1 E2.00000 F2400.00000
G1 F1800
G1 X166.620 Y146.135 E8.03568
G1 X22.966 Y146.135 E19.76250
G1 X22.966 Y53.865 E27.29470
G1 X166.620 Y53.865 E39.02153
G1 X166.620 Y56.283 E39.21886
G1 X182.450 Y56.283 E40.51107
G1 X182.450 Y72.198 E41.81026
G1 X166.695 Y72.198 E43.09635
G1 X167.181 Y72.759 F7800.000
G1 F1800
G1 X167.181 Y146.696 E49.13202
G1 X22.405 Y146.696 E60.95044
G1 X22.405 Y53.304 E68.57423
G1 X167.181 Y53.304 E80.39265
G1 X167.181 Y55.722 E80.58998
G1 X183.011 Y55.722 E81.88219
G1 X183.011 Y72.759 E83.27297
G1 X167.256 Y72.759 E84.55906
G1 X167.699 Y73.277 F7800.000
G1 F1800
G1 X167.699 Y147.214 E89.66830
G1 X21.887 Y147.214 E99.74426
G1 X21.887 Y52.786 E106.26943
G1 X167.699 Y52.786 E116.34539
G1 X167.699 Y55.204 E116.51243
G1 X183.528 Y55.204 E117.60629
G1 X183.528 Y73.277 E118.85518
G1 X167.774 Y73.277 E119.94386
G1 X167.219 Y73.417 F7800.000
G1 E117.94386 F2400.00000
G92 E0
G1 X165.841 Y71.873 F7800.000
G1 E2.00000 F2400.00000
G1 F1800
G1 X165.841 Y71.855 E2.00149
G1 X165.859 Y71.855 E2.00298
G1 X181.089 Y56.625 E3.76438
G1 X181.883 Y56.625 E3.82938
G1 X166.654 Y71.855 E5.59079
G1 X167.449 Y71.855 E5.65579
G1 X182.107 Y57.197 E7.35111
G1 X182.107 Y57.992 E7.41611
G1 X168.244 Y71.855 E9.01950
G1 X169.038 Y71.855 E9.08450
G1 X182.107 Y58.786 E10.59596
G1 X182.107 Y59.581 E10.66096
G1 X169.833 Y71.855 E12.08049
G1 X170.628 Y71.855 E12.14549
G1 X182.107 Y60.376 E13.47310
G1 X182.107 Y61.171 E13.53810
G1 X171.423 Y71.855 E14.77378
G1 X172.218 Y71.855 E14.83878
G1 X182.107 Y61.966 E15.98253
G1 X182.107 Y62.761 E16.04753
G1 X173.012 Y71.855 E17.09935
G1 X173.807 Y71.855 E17.16436
G1 X182.107 Y63.555 E18.12425
G1 X182.107 Y64.350 E18.18925
G1 X174.602 Y71.855 E19.05722
G1 X175.397 Y71.855 E19.12222
G1 X182.107 Y65.145 E19.89826
G1 X182.107 Y65.940 E19.96327
G1 X176.192 Y71.855 E20.64738
G1 X176.987 Y71.855 E20.71238
G1 X182.107 Y66.735 E21.30457
G1 X182.107 Y67.530 E21.36957
G1 X177.781 Y71.855 E21.86983
G1 X178.576 Y71.855 E21.93483
G1 X182.107 Y68.324 E22.34316
G1 X182.107 Y69.119 E22.40816
G1 X179.371 Y71.855 E22.72457
G1 X180.166 Y71.855 E22.78957
G1 X182.107 Y69.914 E23.01404
G1 X182.107 Y70.709 E23.07905
G1 X180.961 Y71.855 E23.21160
G1 E21.21160 F2400.00000
G92 E0
G1 X132.268 Y71.269 F7800.000
G1 E2.00000 F2400.00000
G1 F1800
G1 X126.350 Y77.187 E2.68446
G1 X126.350 Y77.981 E2.74946
G1 X132.268 Y72.063 E3.43393
G1 X132.268 Y72.858 E3.49893
G1 X126.350 Y78.776 E4.18339
G1 X126.350 Y79.571 E4.24839
G1 X132.268 Y73.653 E4.93286
G1 X132.268 Y74.448 E4.99786
G1 X126.350 Y80.366 E5.68232
G1 X126.350 Y81.161 E5.74732
G1 X132.268 Y75.243 E6.43179
G1 X132.268 Y76.038 E6.49679
G1 X126.350 Y81.956 E7.18125
G1 X126.350 Y82.750 E7.24625
G1 X132.268 Y76.832 E7.93072
G1 X132.268 Y77.627 E7.99572
G1 X126.350 Y83.545 E8.68018
G1 X126.350 Y84.340 E8.74518
G1 X132.268 Y78.422 E9.42965
G1 X132.268 Y79.217 E9.49465
G1 X126.350 Y85.135 E10.17911
G1 X126.350 Y85.930 E10.24411
G1 X132.268 Y80.012 E10.92857
G1 X132.268 Y80.806 E10.99358
G1 X126.350 Y86.724 E11.67804
G1 X126.350 Y87.519 E11.74304
G1 X132.268 Y81.601 E12.42750
G1 X132.268 Y82.396 E12.49251
G1 X126.350 Y88.314 E13.17697
G1 X126.350 Y89.109 E13.24197
G1 X132.268 Y83.191 E13.92643
G1 X132.268 Y83.986 E13.99144
G1 X126.350 Y89.904 E14.67590
G1 X126.350 Y90.699 E14.74090
G1 X132.268 Y84.781 E15.42536
G1 X132.268 Y85.575 E15.49037
G1 X126.350 Y91.493 E16.17483
G1 X126.350 Y92.288 E16.23983
G1 X132.268 Y86.370 E16.92429
G1 X132.268 Y87.165 E16.98930
G1 X126.350 Y93.083 E17.67376
G1 X126.350 Y93.878 E17.73876
G1 X132.268 Y87.960 E18.42322
G1 X132.268 Y88.755 E18.48823
G1 X126.350 Y94.673 E19.17269
G1 X126.350 Y95.468 E19.23769
G1 X132.268 Y89.550 E19.92215
G1 X132.268 Y90.344 E19.98715
G1 X126.350 Y96.262 E20.67162
G1 X126.350 Y97.057 E20.73662
G1 X132.268 Y91.139 E21.42108
G1 X132.268 Y91.934 E21.48608
G1 X126.350 Y97.852 E22.17055
G1 X126.350 Y98.647 E22.23555
G1 X132.268 Y92.729 E22.92001
G1 X132.268 Y93.524 E22.98501
G1 X126.350 Y99.442 E23.66948
G1 X126.350 Y100.236 E23.73448
G1 X132.268 Y94.318 E24.41894
G1 X132.268 Y95.113 E24.48394
G1 X126.350 Y101.031 E25.16841
G1 X126.350 Y101.826 E25.23341
G1 X132.268 Y95.908 E25.91787
G1 X132.268 Y96.703 E25.98287
G1 X126.350 Y102.621 E26.66734
G1 X126.350 Y103.416 E26.73234
G1 X132.268 Y97.498 E27.41680
G1 X132.268 Y98.293 E27.48180
G1 X126.350 Y104.211 E28.16626
G1 X126.350 Y105.005 E28.23127
G1 X132.268 Y99.087 E28.91573
G1 X132.268 Y99.882 E28.98073
G1 X126.350 Y105.800 E29.66519
G1 X126.350 Y106.595 E29.73020
G1 X132.268 Y100.677 E30.41466
G1 X132.268 Y101.472 E30.47966
G1 X126.350 Y107.390 E31.16412
G1 X126.350 Y108.185 E31.22913
G1 X132.268 Y102.267 E31.91359
G1 X132.268 Y103.062 E31.97859
G1 X126.350 Y108.980 E32.66305
G1 X126.350 Y109.774 E32.72806
G1 X132.268 Y103.856 E33.41252
G1 X132.268 Y104.651 E33.47752
G1 X126.350 Y110.569 E34.16198
G1 X126.350 Y111.364 E34.22698
G1 X132.268 Y105.446 E34.91145
G1 X132.268 Y106.241 E34.97645
G1 X126.350 Y112.159 E35.66091
G1 X126.350 Y112.954 E35.72591
G1 X132.268 Y107.036 E36.41038
G1 X132.268 Y107.830 E36.47538
G1 X126.350 Y113.749 E37.15984
G1 X126.350 Y114.543 E37.22484
G1 X132.268 Y108.625 E37.90931
G1 X132.268 Y109.420 E37.97431
G1 X126.350 Y115.338 E38.65877
G1 X126.350 Y116.133 E38.72377
G1 X132.268 Y110.215 E39.40824
G1 X132.268 Y111.010 E39.47324
G1 X126.350 Y116.928 E40.15770
G1 X126.350 Y117.723 E40.22270
G1 X132.268 Y111.805 E40.90717
G1 X132.268 Y112.599 E40.97217
G1 X126.350 Y118.517 E41.65663
G1 X126.350 Y119.312 E41.72163
G1 X132.268 Y113.394 E42.40609
G1 X132.268 Y114.189 E42.47110
G1 X126.350 Y120.107 E43.15556
G1 X126.350 Y120.902 E43.22056
G1 X132.268 Y114.984 E43.90502
G1 X132.268 Y115.779 E43.97003
G1 X126.350 Y121.697 E44.65449
G1 X126.350 Y122.492 E44.71949
G1 X132.268 Y116.574 E45.40395
G1 X132.268 Y117.368 E45.46896
G1 X126.350 Y123.286 E46.15342
G1 X126.350 Y124.081 E46.21842
G1 X132.268 Y118.163 E46.90288
G1 X132.268 Y118.958 E46.96789
G1 X126.350 Y124.876 E47.65235
G1 X126.350 Y125.671 E47.71735
G1 X132.268 Y119.753 E48.40181
G1 X132.268 Y120.548 E48.46682
G1 X126.350 Y126.466 E49.15128
G1 X126.350 Y127.261 E49.21628
G1 X132.268 Y121.343 E49.90074
G1 X132.268 Y122.137 E49.96575
G1 X126.350 Y128.055 E50.65021
G1 X126.350 Y128.850 E50.71521
G1 X132.268 Y122.932 E51.39967
G1 X132.268 Y123.727 E51.46467
G1 X126.350 Y129.645 E52.14914
G1 X126.350 Y130.440 E52.21414
G1 X132.268 Y124.522 E52.89860
G1 X132.268 Y125.317 E52.96360
G1 X111.793 Y145.792 E55.33172
G1 X112.587 Y145.792 E55.39672
G1 X132.268 Y126.111 E57.67291
G1 X132.268 Y126.906 E57.73791
G1 X113.382 Y145.792 E59.92218
G1 X114.177 Y145.792 E59.98718
G1 X132.268 Y127.701 E62.07951
G1 X132.268 Y128.496 E62.14451
G1 X114.972 Y145.792 E64.14492
G1 X115.767 Y145.792 E64.20992
G1 X132.268 Y129.291 E66.11840
G1 X132.268 Y130.086 E66.18340
G1 X116.562 Y145.792 E67.99996
G1 X117.356 Y145.792 E68.06496
G1 X132.586 Y130.562 E69.82637
G1 X133.381 Y130.562 E69.89137
G1 X118.151 Y145.792 E71.65277
G1 X118.946 Y145.792 E71.71778
G1 X134.176 Y130.562 E73.47918
G1 X134.970 Y130.562 E73.54419
G1 X119.741 Y145.792 E75.30559
G1 X120.536 Y145.792 E75.37059
G1 X135.765 Y130.562 E77.13200
G1 X136.560 Y130.562 E77.19700
G1 X121.331 Y145.792 E78.95841
G1 X122.125 Y145.792 E79.02341
G1 X137.355 Y130.562 E80.78482
G1 X138.150 Y130.562 E80.84982
G1 X122.920 Y145.792 E82.61123
G1 X123.715 Y145.792 E82.67623
G1 X138.945 Y130.562 E84.43764
G1 X139.739 Y130.562 E84.50264
G1 X124.510 Y145.792 E86.26404
G1 X125.305 Y145.792 E86.32905
G1 X140.534 Y130.562 E88.09045
G1 X141.329 Y130.562 E88.15546
G1 X126.099 Y145.792 E89.91686
G1 X126.894 Y145.792 E89.98186
G1 X142.124 Y130.562 E91.74327
G1 X142.919 Y130.562 E91.80827
G1 X127.689 Y145.792 E93.56968
G1 X128.484 Y145.792 E93.63468
G1 X166.277 Y107.999 E98.00575
G1 X166.277 Y108.793 E98.07075
G1 X129.279 Y145.792 E102.34990
G1 X130.074 Y145.792 E102.41490
G1 X166.277 Y109.588 E106.60211
G1 X166.277 Y110.383 E106.66712
G1 X130.868 Y145.792 E110.76241
G1 X131.663 Y145.792 E110.82741
G1 X166.277 Y111.178 E114.83077
G1 X166.277 Y111.973 E114.89577
G1 X132.458 Y145.792 E118.80721
G1 X133.253 Y145.792 E118.87221
G1 X166.277 Y112.768 E122.69171
G1 X166.277 Y113.562 E122.75672
G1 X134.048 Y145.792 E126.48430
G1 X134.843 Y145.792 E126.54930
G1 X166.277 Y114.357 E130.18495
G1 X166.277 Y115.152 E130.24995
G1 X135.637 Y145.792 E133.79368
G1 X136.432 Y145.792 E133.85868
G1 X166.277 Y115.947 E137.31048
G1 X166.277 Y116.742 E137.37548
G1 X137.227 Y145.792 E140.73535
G1 X138.022 Y145.792 E140.80035
G1 X166.277 Y117.537 E144.06829
G1 X166.277 Y118.331 E144.13329
G1 X138.817 Y145.792 E147.30931
G1 X139.611 Y145.792 E147.37431
G1 X166.277 Y119.126 E150.45840
G1 X166.277 Y119.921 E150.52340
G1 X140.406 Y145.792 E153.51556
G1 X141.201 Y145.792 E153.58056
G1 X166.277 Y120.716 E156.48080
G1 X166.277 Y121.511 E156.54580
G1 X141.996 Y145.792 E159.35410
G1 X142.791 Y145.792 E159.41911
G1 X166.277 Y122.305 E162.13548
G1 X166.277 Y123.100 E162.20049
G1 X143.586 Y145.792 E164.82494
G1 X144.380 Y145.792 E164.88994
G1 X166.277 Y123.895 E167.42246
G1 X166.277 Y124.690 E167.48746
G1 X145.175 Y145.792 E169.92806
G1 X145.970 Y145.792 E169.99306
G1 X166.277 Y125.485 E172.34173
G1 X166.277 Y126.280 E172.40673
G1 X146.765 Y145.792 E174.66347
G1 X147.560 Y145.792 E174.72847
G1 X166.277 Y127.074 E176.89329
G1 X166.277 Y127.869 E176.95829
G1 X148.355 Y145.792 E179.03118
G1 X149.149 Y145.792 E179.09618
G1 X166.277 Y128.664 E181.07714
G1 X166.277 Y129.459 E181.14214
G1 X149.944 Y145.792 E183.03117
G1 X150.739 Y145.792 E183.09617
G1 X166.277 Y130.254 E184.89328
G1 X166.277 Y131.049 E184.95828
G1 X151.534 Y145.792 E186.66346
G1 X152.329 Y145.792 E186.72846
G1 X166.277 Y131.843 E188.34171
G1 X166.277 Y132.638 E188.40671
G1 X153.124 Y145.792 E189.92803
G1 X153.918 Y145.792 E189.99304
G1 X166.277 Y133.433 E191.42243
G1 X166.277 Y134.228 E191.48743
G1 X154.713 Y145.792 E192.82490
G1 X155.508 Y145.792 E192.88990
G1 X166.277 Y135.023 E194.13544
G1 X166.277 Y135.818 E194.20045
G1 X156.303 Y145.792 E195.35406
G1 X157.098 Y145.792 E195.41906
G1 X166.277 Y136.612 E196.48074
G1 X166.277 Y137.407 E196.54575
G1 X157.892 Y145.792 E197.51550
G1 X158.687 Y145.792 E197.58051
G1 X166.277 Y138.202 E198.45834
G1 X166.277 Y138.997 E198.52334
G1 X159.482 Y145.792 E199.30924
G1 X160.277 Y145.792 E199.37424
G1 X166.277 Y139.792 E200.06822
G1 X166.277 Y140.586 E200.13322
G1 X161.072 Y145.792 E200.73527
G1 X161.867 Y145.792 E200.80027
G1 X166.277 Y141.381 E201.31039
G1 X166.277 Y142.176 E201.37540
G1 X162.661 Y145.792 E201.79359
G1 X163.456 Y145.792 E201.85859
G1 X166.277 Y142.971 E202.18486
G1 X166.277 Y143.766 E202.24986
G1 X164.251 Y145.792 E202.48420
G1 X165.046 Y145.792 E202.54920
G1 X166.277 Y144.561 E202.69161
G1 X166.277 Y145.355 E202.75661
G1 X165.841 Y145.792 E202.80710
G1 E200.80710 F2400.00000
G92 E0
G1 X143.111 Y130.370 F7800.000
G1 E2.00000 F2400.00000
G1 F1800
G1 X166.277 Y107.204 E4.67939
G1 X166.277 Y106.409 E4.74440
G1 X143.111 Y129.576 E7.42379
G1 X143.111 Y128.781 E7.48879
G1 X166.277 Y105.614 E10.16818
G1 X166.277 Y104.819 E10.23319
G1 X143.111 Y127.986 E12.91258
G1 X143.111 Y127.191 E12.97758
